;FLAVOR:Marlin
;TIME:897
;Filament used: 0.397808m
;Layer height: 0.16
;MINX:90.442
;MINY:86.567
;MINZ:0.2
;MAXX:129.558
;MAXY:121.317
;MAXZ:4.88
;Generated with Cura_SteamEngine 4.12.1
M140 S55
M105
M190 S55
M104 S205
M105
M109 S205
M82 ;absolute extrusion mode
; Ender 3 Custom Start G-code
G92 E0 ; Reset Extruder
G28 ; Home all axes
G1 Z2.0 F3000 ; Move Z Axis up little to prevent scratching of Heat Bed
G1 X0.1 Y20 Z0.3 F5000.0 ; Move to start position
G1 X0.1 Y200.0 Z0.3 F1500.0 E15 ; Draw the first line
G1 X0.4 Y200.0 Z0.3 F5000.0 ; Move to side a little
G1 X0.4 Y20 Z0.3 F1500.0 E30 ; Draw the second line
G92 E0 ; Reset Extruder
G1 Z2.0 F3000 ; Move Z Axis up little to prevent scratching of Heat Bed
G1 X5 Y20 Z0.3 F5000.0 ; Move over to prevent blob squish
G92 E0
G92 E0
G1 F1500 E-6.5
;LAYER_COUNT:26
;LAYER:0
M107
G0 F6000 X94.91 Y88.969 Z0.2
;TYPE:SKIRT
G1 F1500 E0
G1 F1200 X95.027 Y88.852 E0.0055
G1 X95.613 Y88.322 E0.03178
G1 X96.249 Y87.855 E0.05803
G1 X96.929 Y87.454 E0.08428
G1 X97.647 Y87.124 E0.11057
G1 X98.394 Y86.869 E0.13682
G1 X99.163 Y86.69 E0.16308
G1 X99.947 Y86.59 E0.18937
G1 X100.542 Y86.567 E0.20917
G1 X119.458 Y86.567 E0.83832
G1 X120.247 Y86.607 E0.8646
G1 X121.027 Y86.726 E0.89084
G1 X121.792 Y86.924 E0.91712
G1 X122.532 Y87.198 E0.94337
G1 X123.241 Y87.546 E0.96964
G1 X123.912 Y87.964 E0.99593
G1 X124.536 Y88.447 E1.02217
G1 X124.973 Y88.852 E1.04199
G1 X125.09 Y88.969 E1.04749
G1 X125.62 Y89.555 E1.07377
G1 X126.087 Y90.191 E1.10002
G1 X126.488 Y90.871 E1.12627
G1 X126.818 Y91.589 E1.15256
G1 X127.073 Y92.336 E1.17881
G1 X127.252 Y93.105 E1.20507
G1 X127.352 Y93.889 E1.23136
G1 X127.375 Y94.484 E1.25116
G1 X127.375 Y97.661 E1.35683
G1 X127.612 Y97.976 E1.36994
G1 X127.847 Y98.313 E1.38361
G1 X128.265 Y98.983 E1.40987
G1 X128.515 Y99.472 E1.42814
G1 X128.68 Y99.825 E1.4411
G1 X128.978 Y100.557 E1.46738
G1 X129.148 Y101.108 E1.48656
G1 X129.259 Y101.522 E1.50082
G1 X129.425 Y102.294 E1.52708
G1 X129.497 Y102.884 E1.54685
G1 X129.53 Y103.274 E1.55987
G1 X129.558 Y103.95 E1.58237
G1 X129.53 Y104.608 E1.60428
G1 X129.497 Y104.998 E1.6173
G1 X129.427 Y105.576 E1.63666
G1 X129.247 Y106.411 E1.66507
G1 X129.139 Y106.807 E1.67872
G1 X128.893 Y107.558 E1.70501
G1 X128.673 Y108.073 E1.72363
G1 X128.501 Y108.439 E1.73708
G1 X128.13 Y109.135 E1.76332
G1 X127.811 Y109.624 E1.78274
G1 X127.572 Y109.962 E1.7965
G1 X127.375 Y110.213 E1.80712
G1 X127.375 Y113.4 E1.91312
G1 X127.335 Y114.189 E1.93939
G1 X127.216 Y114.969 E1.96564
G1 X127.018 Y115.734 E1.99192
G1 X126.744 Y116.474 E2.01816
G1 X126.396 Y117.183 E2.04443
G1 X125.978 Y117.854 E2.07073
G1 X125.495 Y118.478 E2.09697
G1 X125.09 Y118.915 E2.11679
G1 X124.973 Y119.032 E2.12229
G1 X124.387 Y119.562 E2.14857
G1 X123.751 Y120.029 E2.17481
G1 X123.071 Y120.43 E2.20107
G1 X122.353 Y120.76 E2.22735
G1 X121.606 Y121.015 E2.25361
G1 X120.837 Y121.194 E2.27987
G1 X120.053 Y121.294 E2.30615
G1 X119.458 Y121.317 E2.32596
G1 X100.542 Y121.317 E2.95511
G1 X99.753 Y121.277 E2.98138
G1 X98.973 Y121.158 E3.00763
G1 X98.208 Y120.96 E3.03391
G1 X97.468 Y120.686 E3.06016
G1 X96.759 Y120.338 E3.08642
G1 X96.088 Y119.92 E3.11272
G1 X95.464 Y119.437 E3.13896
G1 X95.027 Y119.032 E3.15878
G1 X94.91 Y118.915 E3.16428
G1 X94.38 Y118.329 E3.19056
G1 X93.913 Y117.693 E3.21681
G1 X93.512 Y117.013 E3.24306
G1 X93.182 Y116.295 E3.26935
G1 X92.927 Y115.548 E3.2956
G1 X92.748 Y114.779 E3.32186
G1 X92.648 Y113.995 E3.34815
G1 X92.625 Y113.4 E3.36795
G1 X92.625 Y110.222 E3.47365
G1 X92.407 Y109.934 E3.48567
G1 X92.179 Y109.61 E3.49884
G1 X91.758 Y108.942 E3.5251
G1 X91.499 Y108.439 E3.54392
G1 X91.327 Y108.073 E3.55737
G1 X91.027 Y107.342 E3.58365
G1 X90.853 Y106.78 E3.60322
G1 X90.742 Y106.367 E3.61744
G1 X90.576 Y105.595 E3.64371
G1 X90.503 Y105 E3.66365
G1 X90.47 Y104.61 E3.67666
G1 X90.442 Y103.934 E3.69917
G1 X90.469 Y103.28 E3.72094
G1 X90.502 Y102.888 E3.73402
G1 X90.608 Y102.105 E3.7603
G1 X90.739 Y101.53 E3.77992
G1 X90.849 Y101.118 E3.7941
G1 X91.091 Y100.366 E3.82038
G1 X91.33 Y99.803 E3.84072
G1 X91.504 Y99.434 E3.85429
G1 X91.877 Y98.738 E3.88055
G1 X92.188 Y98.261 E3.89949
G1 X92.426 Y97.924 E3.91321
G1 X92.625 Y97.67 E3.92394
G1 X92.625 Y94.484 E4.02991
G1 X92.665 Y93.695 E4.05619
G1 X92.784 Y92.915 E4.08243
G1 X92.982 Y92.15 E4.10871
G1 X93.256 Y91.41 E4.13496
G1 X93.604 Y90.701 E4.16123
G1 X94.022 Y90.03 E4.18752
G1 X94.505 Y89.406 E4.21377
G1 X94.91 Y88.969 E4.23358
G0 F6000 X95.192 Y89.251
G1 F1200 X95.309 Y89.134 E4.23909
G1 X95.881 Y88.62 E4.26466
G1 X96.503 Y88.167 E4.29026
G1 X97.168 Y87.781 E4.31583
G1 X97.87 Y87.466 E4.34142
G1 X98.601 Y87.226 E4.36701
G1 X99.352 Y87.063 E4.39257
G1 X100.117 Y86.979 E4.41817
G1 X100.542 Y86.967 E4.43231
G1 X119.458 Y86.967 E5.06146
G1 X120.226 Y87.007 E5.08704
G1 X120.986 Y87.126 E5.11262
G1 X121.729 Y87.324 E5.1382
G1 X122.448 Y87.598 E5.16379
G1 X123.134 Y87.945 E5.18936
G1 X123.781 Y88.361 E5.21494
G1 X124.381 Y88.842 E5.24052
G1 X124.691 Y89.134 E5.25468
G1 X124.808 Y89.251 E5.26019
G1 X125.322 Y89.823 E5.28576
G1 X125.775 Y90.445 E5.31136
G1 X126.161 Y91.11 E5.33693
G1 X126.476 Y91.812 E5.36252
G1 X126.716 Y92.543 E5.38811
G1 X126.879 Y93.294 E5.41367
G1 X126.963 Y94.059 E5.43927
G1 X126.975 Y94.484 E5.45341
G1 X126.975 Y97.794 E5.5635
G1 X127.284 Y98.205 E5.5806
G1 X127.519 Y98.542 E5.59427
G1 X127.925 Y99.195 E5.61984
G1 X128.153 Y99.641 E5.6365
G1 X128.318 Y99.994 E5.64946
G1 X128.607 Y100.707 E5.67505
G1 X128.762 Y101.212 E5.69262
G1 X128.873 Y101.626 E5.70688
G1 X129.033 Y102.378 E5.73245
G1 X129.099 Y102.918 E5.75054
G1 X129.132 Y103.308 E5.76356
G1 X129.158 Y103.95 E5.78493
G1 X129.132 Y104.574 E5.8057
G1 X129.099 Y104.964 E5.81872
G1 X129.031 Y105.513 E5.83712
G1 X128.861 Y106.306 E5.8641
G1 X128.753 Y106.702 E5.87775
G1 X128.513 Y107.433 E5.90334
G1 X128.311 Y107.902 E5.92032
G1 X128.139 Y108.268 E5.93377
G1 X127.776 Y108.947 E5.95938
G1 X127.484 Y109.393 E5.97711
G1 X127.245 Y109.731 E5.99088
G1 X126.975 Y110.074 E6.0054
G1 X126.975 Y113.4 E6.11602
G1 X126.935 Y114.168 E6.1416
G1 X126.816 Y114.928 E6.16719
G1 X126.618 Y115.671 E6.19276
G1 X126.344 Y116.39 E6.21835
G1 X125.997 Y117.076 E6.24392
G1 X125.581 Y117.723 E6.26951
G1 X125.1 Y118.323 E6.29508
G1 X124.808 Y118.633 E6.30925
G1 X124.691 Y118.75 E6.31475
G1 X124.119 Y119.264 E6.34033
G1 X123.497 Y119.717 E6.36592
G1 X122.832 Y120.103 E6.39149
G1 X122.13 Y120.418 E6.41709
G1 X121.399 Y120.658 E6.44268
G1 X120.648 Y120.821 E6.46824
G1 X119.883 Y120.905 E6.49383
G1 X119.458 Y120.917 E6.50797
G1 X100.542 Y120.917 E7.13712
G1 X99.774 Y120.877 E7.1627
G1 X99.014 Y120.758 E7.18829
G1 X98.271 Y120.56 E7.21386
G1 X97.552 Y120.286 E7.23945
G1 X96.866 Y119.939 E7.26502
G1 X96.219 Y119.523 E7.29061
G1 X95.619 Y119.042 E7.31618
G1 X95.309 Y118.75 E7.33035
G1 X95.192 Y118.633 E7.33585
G1 X94.678 Y118.061 E7.36143
G1 X94.225 Y117.439 E7.38702
G1 X93.839 Y116.774 E7.4126
G1 X93.524 Y116.072 E7.43819
G1 X93.284 Y115.341 E7.46378
G1 X93.121 Y114.59 E7.48934
G1 X93.037 Y113.825 E7.51493
G1 X93.025 Y113.4 E7.52908
G1 X93.025 Y110.089 E7.6392
G1 X92.734 Y109.704 E7.65525
G1 X92.506 Y109.38 E7.66843
G1 X92.097 Y108.728 E7.69403
G1 X91.861 Y108.268 E7.71122
G1 X91.689 Y107.902 E7.72467
G1 X91.398 Y107.19 E7.75026
G1 X91.24 Y106.676 E7.76814
G1 X91.129 Y106.263 E7.78236
G1 X90.968 Y105.511 E7.80794
G1 X90.901 Y104.966 E7.82621
G1 X90.868 Y104.576 E7.83922
G1 X90.842 Y103.934 E7.86059
G1 X90.868 Y103.313 E7.88127
G1 X90.901 Y102.921 E7.89435
G1 X91.005 Y102.159 E7.91993
G1 X91.125 Y101.633 E7.93788
G1 X91.235 Y101.221 E7.95206
G1 X91.472 Y100.489 E7.97765
G1 X91.692 Y99.974 E7.99628
G1 X91.866 Y99.605 E8.00984
G1 X92.23 Y98.927 E8.03544
G1 X92.514 Y98.492 E8.05272
G1 X92.752 Y98.155 E8.06644
G1 X93.025 Y97.809 E8.0811
G1 X93.025 Y94.484 E8.19169
G1 X93.065 Y93.716 E8.21727
G1 X93.184 Y92.956 E8.24285
G1 X93.382 Y92.213 E8.26843
G1 X93.656 Y91.494 E8.29402
G1 X94.003 Y90.808 E8.31959
G1 X94.419 Y90.161 E8.34517
G1 X94.9 Y89.561 E8.37075
G1 X95.192 Y89.251 E8.38491
G0 F6000 X95.475 Y89.534
G1 F1200 X95.592 Y89.417 E8.39042
G1 X96.149 Y88.917 E8.41531
G1 X96.755 Y88.48 E8.44016
G1 X97.405 Y88.109 E8.46505
G1 X98.091 Y87.81 E8.48994
G1 X98.805 Y87.586 E8.51483
G1 X99.538 Y87.439 E8.5397
G1 X100.542 Y87.367 E8.57318
G1 X119.458 Y87.367 E9.20233
G1 X120.205 Y87.407 E9.22721
G1 X120.943 Y87.526 E9.25207
G1 X121.665 Y87.724 E9.27697
G1 X122.361 Y87.997 E9.30184
G1 X123.024 Y88.344 E9.32673
G1 X123.647 Y88.759 E9.35162
G1 X124.408 Y89.417 E9.38508
G1 X124.525 Y89.534 E9.39059
G1 X125.025 Y90.091 E9.41548
G1 X125.462 Y90.697 E9.44033
G1 X125.833 Y91.347 E9.46522
G1 X126.132 Y92.033 E9.49011
G1 X126.356 Y92.747 E9.515
G1 X126.503 Y93.48 E9.53987
G1 X126.575 Y94.484 E9.57335
G1 X126.575 Y97.947 E9.68853
G1 X126.671 Y98.054 E9.69331
G1 X126.956 Y98.434 E9.70911
G1 X127.191 Y98.771 E9.72277
G1 X127.585 Y99.407 E9.74766
G1 X127.79 Y99.811 E9.76272
G1 X127.955 Y100.164 E9.77568
G1 X128.236 Y100.858 E9.80059
G1 X128.375 Y101.315 E9.81647
G1 X128.486 Y101.729 E9.83073
G1 X128.641 Y102.461 E9.85562
G1 X128.7 Y102.952 E9.87206
G1 X128.733 Y103.342 E9.88508
G1 X128.758 Y103.95 E9.90532
G1 X128.733 Y104.54 E9.92496
G1 X128.7 Y104.93 E9.93798
G1 X128.636 Y105.451 E9.95544
G1 X128.475 Y106.201 E9.98095
G1 X128.367 Y106.597 E9.9946
G1 X128.132 Y107.307 E10.01948
G1 X127.949 Y107.732 E10.03487
G1 X127.777 Y108.098 E10.04832
G1 X127.423 Y108.757 E10.0732
G1 X127.157 Y109.162 E10.08932
G1 X126.918 Y109.5 E10.10308
G1 X126.575 Y109.935 E10.12151
G1 X126.575 Y113.4 E10.23676
G1 X126.535 Y114.147 E10.26164
G1 X126.416 Y114.885 E10.2865
G1 X126.218 Y115.607 E10.3114
G1 X125.945 Y116.303 E10.33627
G1 X125.598 Y116.966 E10.36116
G1 X125.183 Y117.589 E10.38605
G1 X124.525 Y118.35 E10.41951
G1 X124.408 Y118.467 E10.42502
G1 X123.851 Y118.967 E10.44991
G1 X123.245 Y119.404 E10.47476
G1 X122.595 Y119.775 E10.49965
G1 X121.909 Y120.074 E10.52454
G1 X121.195 Y120.298 E10.54943
G1 X120.462 Y120.445 E10.5743
G1 X119.458 Y120.517 E10.60778
G1 X100.542 Y120.517 E11.23693
G1 X99.795 Y120.477 E11.26181
G1 X99.057 Y120.358 E11.28667
G1 X98.335 Y120.16 E11.31157
G1 X97.639 Y119.887 E11.33644
G1 X96.976 Y119.54 E11.36133
G1 X96.353 Y119.125 E11.38622
G1 X95.592 Y118.467 E11.41968
G1 X95.475 Y118.35 E11.42519
G1 X94.975 Y117.793 E11.45008
G1 X94.538 Y117.187 E11.47493
G1 X94.167 Y116.537 E11.49982
G1 X93.868 Y115.851 E11.52471
G1 X93.644 Y115.137 E11.5496
G1 X93.497 Y114.404 E11.57447
G1 X93.425 Y113.4 E11.60795
G1 X93.425 Y109.935 E11.72319
G1 X93.315 Y109.811 E11.72871
G1 X93.061 Y109.473 E11.74277
G1 X92.833 Y109.149 E11.75595
G1 X92.436 Y108.516 E11.7808
G1 X92.223 Y108.098 E11.7964
G1 X92.051 Y107.732 E11.80985
G1 X91.769 Y107.039 E11.83474
G1 X91.626 Y106.572 E11.85098
G1 X91.515 Y106.159 E11.8652
G1 X91.36 Y105.427 E11.89009
G1 X91.3 Y104.932 E11.90667
G1 X91.267 Y104.542 E11.91969
G1 X91.242 Y103.934 E11.93993
G1 X91.267 Y103.347 E11.95947
G1 X91.3 Y102.955 E11.97256
G1 X91.402 Y102.214 E11.99744
G1 X91.512 Y101.736 E12.01375
G1 X91.622 Y101.324 E12.02793
G1 X91.853 Y100.613 E12.0528
G1 X92.054 Y100.144 E12.06977
G1 X92.228 Y99.775 E12.08334
G1 X92.582 Y99.117 E12.10819
G1 X92.841 Y98.723 E12.12387
G1 X93.079 Y98.386 E12.13759
G1 X93.425 Y97.948 E12.15616
G1 X93.425 Y94.484 E12.27137
G1 X93.465 Y93.737 E12.29625
G1 X93.584 Y92.999 E12.32112
G1 X93.782 Y92.277 E12.34602
G1 X94.055 Y91.581 E12.37088
G1 X94.402 Y90.918 E12.39577
G1 X94.817 Y90.295 E12.42067
G1 X95.475 Y89.534 E12.45413
G0 F6000 X95.758 Y89.817
G1 F1200 X95.875 Y89.7 E12.45963
G1 X96.416 Y89.216 E12.48378
G1 X97.007 Y88.793 E12.50795
G1 X97.641 Y88.439 E12.5321
G1 X98.31 Y88.156 E12.55626
G1 X99.006 Y87.948 E12.58042
G1 X99.721 Y87.818 E12.60459
G1 X100.542 Y87.767 E12.63195
G1 X119.458 Y87.767 E13.2611
G1 X120.183 Y87.807 E13.28525
G1 X120.9 Y87.926 E13.30942
G1 X121.599 Y88.124 E13.33359
G1 X122.272 Y88.397 E13.35774
G1 X122.911 Y88.742 E13.3819
G1 X123.508 Y89.156 E13.40606
G1 X124.125 Y89.7 E13.43342
G1 X124.242 Y89.817 E13.43892
G1 X124.726 Y90.358 E13.46307
G1 X125.149 Y90.949 E13.48724
G1 X125.503 Y91.583 E13.51139
G1 X125.786 Y92.252 E13.53555
G1 X125.994 Y92.948 E13.55971
G1 X126.124 Y93.663 E13.58388
G1 X126.175 Y94.484 E13.61124
G1 X126.175 Y98.1 E13.73151
G1 X126.372 Y98.321 E13.74136
G1 X126.628 Y98.663 E13.75556
G1 X126.863 Y99 E13.76923
G1 X127.245 Y99.618 E13.79339
G1 X127.428 Y99.98 E13.80689
G1 X127.593 Y100.333 E13.81985
G1 X127.864 Y101.007 E13.84401
G1 X127.989 Y101.419 E13.85833
G1 X128.1 Y101.833 E13.87258
G1 X128.249 Y102.544 E13.89674
G1 X128.301 Y102.986 E13.91155
G1 X128.334 Y103.376 E13.92456
G1 X128.358 Y103.95 E13.94367
G1 X128.334 Y104.506 E13.96218
G1 X128.301 Y104.896 E13.9752
G1 X128.241 Y105.388 E13.99169
G1 X128.089 Y106.096 E14.01577
G1 X127.981 Y106.492 E14.02942
G1 X127.752 Y107.181 E14.05357
G1 X127.587 Y107.562 E14.06738
G1 X127.415 Y107.928 E14.08083
G1 X127.071 Y108.568 E14.105
G1 X126.831 Y108.931 E14.11947
G1 X126.592 Y109.269 E14.13324
G1 X126.175 Y109.796 E14.15559
G1 X126.175 Y113.4 E14.27546
G1 X126.135 Y114.125 E14.29961
G1 X126.016 Y114.842 E14.32378
G1 X125.818 Y115.541 E14.34795
G1 X125.545 Y116.214 E14.3721
G1 X125.2 Y116.853 E14.39626
G1 X124.786 Y117.45 E14.42042
G1 X124.242 Y118.067 E14.44778
G1 X124.125 Y118.184 E14.45328
G1 X123.584 Y118.668 E14.47743
G1 X122.993 Y119.091 E14.5016
G1 X122.359 Y119.445 E14.52575
G1 X121.69 Y119.728 E14.54991
G1 X120.994 Y119.936 E14.57407
G1 X120.279 Y120.066 E14.59824
G1 X119.458 Y120.117 E14.6256
G1 X100.542 Y120.117 E15.25475
G1 X99.817 Y120.077 E15.2789
G1 X99.1 Y119.958 E15.30307
G1 X98.401 Y119.76 E15.32724
G1 X97.728 Y119.487 E15.35139
G1 X97.089 Y119.142 E15.37555
G1 X96.492 Y118.728 E15.39971
G1 X95.875 Y118.184 E15.42707
G1 X95.758 Y118.067 E15.43257
G1 X95.274 Y117.526 E15.45672
G1 X94.851 Y116.935 E15.48089
G1 X94.497 Y116.301 E15.50504
G1 X94.214 Y115.632 E15.5292
G1 X94.006 Y114.936 E15.55336
G1 X93.876 Y114.221 E15.57753
G1 X93.825 Y113.4 E15.60489
G1 X93.825 Y109.783 E15.72519
G1 X93.614 Y109.545 E15.73577
G1 X93.388 Y109.243 E15.74832
G1 X93.16 Y108.919 E15.76149
G1 X92.776 Y108.303 E15.78564
G1 X92.585 Y107.928 E15.79963
G1 X92.413 Y107.562 E15.81308
G1 X92.14 Y106.889 E15.83724
G1 X92.012 Y106.468 E15.85188
G1 X91.901 Y106.055 E15.8661
G1 X91.752 Y105.344 E15.89026
G1 X91.699 Y104.898 E15.9052
G1 X91.666 Y104.508 E15.91822
G1 X91.642 Y103.934 E15.93733
G1 X91.665 Y103.38 E15.95577
G1 X91.698 Y102.988 E15.96885
G1 X91.799 Y102.269 E15.993
G1 X91.898 Y101.839 E16.00768
G1 X92.008 Y101.427 E16.02186
G1 X92.234 Y100.737 E16.04601
G1 X92.415 Y100.315 E16.06128
G1 X92.589 Y99.946 E16.07485
G1 X92.935 Y99.307 E16.09902
G1 X93.168 Y98.954 E16.11309
G1 X93.406 Y98.617 E16.12681
G1 X93.825 Y98.087 E16.14928
G1 X93.825 Y94.484 E16.26912
G1 X93.865 Y93.759 E16.29327
G1 X93.984 Y93.042 E16.31744
G1 X94.182 Y92.343 E16.3416
G1 X94.455 Y91.67 E16.36576
G1 X94.8 Y91.031 E16.38991
G1 X95.214 Y90.434 E16.41408
G1 X95.758 Y89.817 E16.44144
G0 F6000 X96.041 Y90.1
G1 F1200 X96.158 Y89.983 E16.44694
G1 X96.683 Y89.514 E16.47035
G1 X97.258 Y89.108 E16.49376
G1 X97.876 Y88.77 E16.51719
G1 X98.527 Y88.503 E16.5406
G1 X99.205 Y88.313 E16.56401
G1 X99.9 Y88.2 E16.58743
G1 X100.542 Y88.167 E16.60881
G1 X119.458 Y88.167 E17.23796
G1 X120.161 Y88.207 E17.26138
G1 X120.855 Y88.326 E17.2848
G1 X121.53 Y88.524 E17.3082
G1 X122.179 Y88.796 E17.3316
G1 X122.793 Y89.141 E17.35503
G1 X123.364 Y89.552 E17.37843
G1 X123.842 Y89.983 E17.39984
G1 X123.959 Y90.1 E17.40534
G1 X124.428 Y90.625 E17.42875
G1 X124.834 Y91.2 E17.45216
G1 X125.172 Y91.818 E17.47559
G1 X125.439 Y92.469 E17.499
G1 X125.629 Y93.147 E17.52241
G1 X125.742 Y93.842 E17.54583
G1 X125.775 Y94.484 E17.56722
G1 X125.775 Y98.252 E17.69254
G1 X126.073 Y98.587 E17.70745
G1 X126.3 Y98.892 E17.7201
G1 X126.535 Y99.229 E17.73376
G1 X126.904 Y99.828 E17.75716
G1 X127.066 Y100.15 E17.76915
G1 X127.231 Y100.503 E17.78211
G1 X127.492 Y101.156 E17.8055
G1 X127.602 Y101.522 E17.81821
G1 X127.713 Y101.936 E17.83247
G1 X127.857 Y102.626 E17.85591
G1 X127.903 Y103.019 E17.86907
G1 X127.936 Y103.409 E17.88209
