;FLAVOR:Marlin
;TIME:211
;Filament used: 0.105193m
;Layer height: 0.16
;MINX:89.525
;MINY:89.525
;MINZ:0.2
;MAXX:130.475
;MAXY:130.475
;MAXZ:1.4
;Generated with Cura_SteamEngine 4.12.1
M140 S55
M105
M190 S55
M104 S205
M105
M109 S205
M82 ;absolute extrusion mode
; Ender 3 Custom Start G-code
G92 E0 ; Reset Extruder
G28 ; Home all axes
G1 Z2.0 F3000 ; Move Z Axis up little to prevent scratching of Heat Bed
G1 X0.1 Y20 Z0.3 F5000.0 ; Move to start position
G1 X0.1 Y200.0 Z0.3 F1500.0 E15 ; Draw the first line
G1 X0.4 Y200.0 Z0.3 F5000.0 ; Move to side a little
G1 X0.4 Y20 Z0.3 F1500.0 E30 ; Draw the second line
G92 E0 ; Reset Extruder
G1 Z2.0 F3000 ; Move Z Axis up little to prevent scratching of Heat Bed
G1 X5 Y20 Z0.3 F5000.0 ; Move over to prevent blob squish
G92 E0
G92 E0
G1 F1500 E-6.5
;LAYER_COUNT:8
;LAYER:0
M107
G0 F6000 X92.723 Y92.789 Z0.2
;TYPE:SKIRT
G1 F1500 E0
G1 F1200 X93.411 Y92.152 E0.03119
G1 X94.151 Y91.576 E0.06237
G1 X94.937 Y91.064 E0.09357
G1 X95.764 Y90.622 E0.12476
G1 X96.626 Y90.252 E0.15596
G1 X97.516 Y89.956 E0.18716
G1 X98.428 Y89.738 E0.21835
G1 X99.355 Y89.597 E0.24953
G1 X100.226 Y89.538 E0.27857
G1 X100.547 Y89.529 E0.28925
G1 X100.855 Y89.525 E0.29949
G1 X118.768 Y89.525 E0.89528
G1 X119.624 Y89.536 E0.92376
G1 X120.56 Y89.59 E0.95494
G1 X121.488 Y89.722 E0.98612
G1 X122.402 Y89.934 E1.01732
G1 X123.294 Y90.223 E1.04851
G1 X124.159 Y90.586 E1.07971
G1 X124.989 Y91.022 E1.11089
G1 X125.78 Y91.527 E1.14211
G1 X126.524 Y92.098 E1.1733
G1 X127.217 Y92.73 E1.20449
G1 X127.854 Y93.418 E1.23568
G1 X128.429 Y94.159 E1.26687
G1 X128.94 Y94.945 E1.29806
G1 X129.382 Y95.773 E1.32927
G1 X129.751 Y96.635 E1.36046
G1 X130.046 Y97.525 E1.39165
G1 X130.264 Y98.437 E1.42283
G1 X130.404 Y99.365 E1.45405
G1 X130.462 Y100.226 E1.48275
G1 X130.471 Y100.546 E1.4934
G1 X130.475 Y100.855 E1.50368
G1 X130.474 Y118.875 E2.10302
G1 X130.465 Y119.602 E2.12721
G1 X130.414 Y120.539 E2.15842
G1 X130.282 Y121.467 E2.18959
G1 X130.073 Y122.381 E2.22078
G1 X129.786 Y123.274 E2.25197
G1 X129.424 Y124.14 E2.28319
G1 X128.99 Y124.971 E2.31437
G1 X128.486 Y125.762 E2.34557
G1 X127.917 Y126.507 E2.37675
G1 X127.286 Y127.202 E2.40797
G1 X126.599 Y127.84 E2.43915
G1 X125.86 Y128.417 E2.47034
G1 X125.074 Y128.929 E2.50154
G1 X124.248 Y129.372 E2.53271
G1 X123.386 Y129.744 E2.56394
G1 X122.497 Y130.04 E2.5951
G1 X121.585 Y130.26 E2.62631
G1 X120.658 Y130.401 E2.65749
G1 X119.774 Y130.462 E2.68696
G1 X119.453 Y130.471 E2.69765
G1 X119.145 Y130.475 E2.70789
G1 X101.09 Y130.474 E3.3084
G1 X100.392 Y130.465 E3.33162
G1 X99.456 Y130.413 E3.3628
G1 X98.527 Y130.281 E3.39401
G1 X97.613 Y130.071 E3.4252
G1 X96.72 Y129.784 E3.4564
G1 X95.855 Y129.421 E3.4876
G1 X95.024 Y128.987 E3.51878
G1 X94.233 Y128.483 E3.54997
G1 X93.488 Y127.913 E3.58117
G1 X92.794 Y127.282 E3.61237
G1 X92.157 Y126.595 E3.64353
G1 X91.58 Y125.855 E3.67474
G1 X91.068 Y125.069 E3.70594
G1 X90.625 Y124.242 E3.73715
G1 X90.254 Y123.381 E3.76833
G1 X89.958 Y122.491 E3.79952
G1 X89.739 Y121.579 E3.83072
G1 X89.598 Y120.652 E3.86191
G1 X89.538 Y119.763 E3.89154
G1 X89.529 Y119.43 E3.90262
G1 X89.525 Y119.133 E3.9125
G1 X89.526 Y101.05 E4.51394
G1 X89.535 Y100.385 E4.53606
G1 X89.588 Y99.449 E4.56724
G1 X89.72 Y98.52 E4.59845
G1 X89.931 Y97.606 E4.62965
G1 X90.219 Y96.714 E4.66083
G1 X90.582 Y95.849 E4.69203
G1 X91.017 Y95.018 E4.72323
G1 X91.521 Y94.228 E4.75439
G1 X92.091 Y93.483 E4.78559
G1 X92.723 Y92.789 E4.81681
G0 F6000 X93.114 Y92.964
G1 F1200 X93.799 Y92.348 E4.84745
G1 X94.535 Y91.795 E4.87807
G1 X95.316 Y91.307 E4.9087
G1 X96.136 Y90.889 E4.93932
G1 X96.99 Y90.544 E4.96995
G1 X97.87 Y90.274 E5.00057
G1 X98.77 Y90.082 E5.03117
G1 X99.684 Y89.968 E5.06181
G1 X100.237 Y89.938 E5.08023
G1 X100.558 Y89.929 E5.09091
G1 X100.855 Y89.925 E5.10079
G1 X118.768 Y89.925 E5.69658
G1 X119.618 Y89.936 E5.72485
G1 X120.537 Y89.989 E5.75547
G1 X121.448 Y90.122 E5.78609
G1 X122.344 Y90.333 E5.81671
G1 X123.218 Y90.621 E5.84731
G1 X124.065 Y90.984 E5.87796
G1 X124.876 Y91.419 E5.90857
G1 X125.646 Y91.923 E5.93918
G1 X126.37 Y92.492 E5.96981
G1 X127.042 Y93.122 E6.00044
G1 X127.657 Y93.807 E6.03106
G1 X128.21 Y94.543 E6.06168
G1 X128.697 Y95.324 E6.09229
G1 X129.114 Y96.145 E6.12292
G1 X129.459 Y96.999 E6.15355
G1 X129.728 Y97.879 E6.18416
G1 X129.92 Y98.78 E6.2148
G1 X130.033 Y99.693 E6.2454
G1 X130.062 Y100.237 E6.26352
G1 X130.071 Y100.557 E6.27417
G1 X130.075 Y100.855 E6.28408
G1 X130.074 Y118.87 E6.88326
G1 X130.065 Y119.597 E6.90744
G1 X130.014 Y120.516 E6.93805
G1 X129.883 Y121.428 E6.9687
G1 X129.673 Y122.324 E6.99931
G1 X129.387 Y123.199 E7.02993
G1 X129.026 Y124.046 E7.06055
G1 X128.592 Y124.858 E7.09117
G1 X128.09 Y125.63 E7.1218
G1 X127.522 Y126.355 E7.15243
G1 X126.894 Y127.028 E7.18305
G1 X126.21 Y127.644 E7.21366
G1 X125.475 Y128.198 E7.24428
G1 X124.695 Y128.687 E7.2749
G1 X123.875 Y129.106 E7.30552
G1 X123.022 Y129.452 E7.33614
G1 X122.142 Y129.723 E7.36677
G1 X121.242 Y129.916 E7.39738
G1 X120.328 Y130.031 E7.42802
G1 X119.763 Y130.062 E7.44684
G1 X119.442 Y130.071 E7.45752
G1 X119.145 Y130.075 E7.4674
G1 X101.095 Y130.074 E8.06775
G1 X100.397 Y130.065 E8.09096
G1 X99.478 Y130.013 E8.12158
G1 X98.567 Y129.882 E8.15219
G1 X97.671 Y129.672 E8.1828
G1 X96.796 Y129.385 E8.21343
G1 X95.949 Y129.023 E8.24406
G1 X95.137 Y128.589 E8.27469
G1 X94.366 Y128.087 E8.30529
G1 X93.641 Y127.519 E8.33592
G1 X92.968 Y126.89 E8.36656
G1 X92.353 Y126.206 E8.39715
G1 X91.799 Y125.471 E8.42776
G1 X91.311 Y124.69 E8.45839
G1 X90.892 Y123.87 E8.48902
G1 X90.546 Y123.017 E8.51964
G1 X90.276 Y122.137 E8.55025
G1 X90.083 Y121.236 E8.5809
G1 X89.969 Y120.323 E8.6115
G1 X89.938 Y119.752 E8.63052
G1 X89.929 Y119.419 E8.6416
G1 X89.925 Y119.133 E8.65111
G1 X89.926 Y101.056 E9.25236
G1 X89.935 Y100.391 E9.27448
G1 X89.987 Y99.471 E9.30513
G1 X90.119 Y98.56 E9.33574
G1 X90.33 Y97.664 E9.36636
G1 X90.617 Y96.789 E9.39699
G1 X90.98 Y95.943 E9.42761
G1 X91.414 Y95.131 E9.45823
G1 X91.917 Y94.36 E9.48885
G1 X92.486 Y93.636 E9.51947
G1 X93.114 Y92.964 E9.55007
G0 F6000 X93.506 Y93.142
G1 F1200 X94.187 Y92.549 E9.5801
G1 X94.919 Y92.019 E9.61016
G1 X95.694 Y91.556 E9.64018
G1 X96.507 Y91.163 E9.67022
G1 X97.352 Y90.843 E9.70027
G1 X98.221 Y90.6 E9.73028
G1 X99.109 Y90.434 E9.76033
G1 X100.248 Y90.338 E9.79835
G1 X100.569 Y90.329 E9.80903
G1 X100.855 Y90.325 E9.81854
G1 X118.768 Y90.325 E10.41433
G1 X119.612 Y90.336 E10.4424
G1 X120.514 Y90.389 E10.47246
G1 X121.407 Y90.521 E10.50248
G1 X122.285 Y90.732 E10.53251
G1 X123.141 Y91.02 E10.56255
G1 X123.968 Y91.382 E10.59258
G1 X124.76 Y91.817 E10.62263
G1 X125.511 Y92.319 E10.65268
G1 X126.214 Y92.886 E10.68272
G1 X126.864 Y93.513 E10.71275
G1 X127.456 Y94.195 E10.74279
G1 X127.986 Y94.926 E10.77282
G1 X128.448 Y95.702 E10.80286
G1 X128.841 Y96.515 E10.83289
G1 X129.159 Y97.36 E10.86292
G1 X129.402 Y98.23 E10.89297
G1 X129.567 Y99.118 E10.92301
G1 X129.662 Y100.248 E10.96072
G1 X129.671 Y100.568 E10.97137
G1 X129.675 Y100.855 E10.98092
G1 X129.674 Y118.865 E11.57993
G1 X129.665 Y119.592 E11.60412
G1 X129.614 Y120.494 E11.63416
G1 X129.483 Y121.388 E11.66422
G1 X129.274 Y122.266 E11.69423
G1 X128.988 Y123.123 E11.72428
G1 X128.627 Y123.951 E11.75433
G1 X128.195 Y124.743 E11.78433
G1 X127.694 Y125.495 E11.81439
G1 X127.128 Y126.199 E11.84443
G1 X126.503 Y126.85 E11.87445
G1 X125.822 Y127.444 E11.9045
G1 X125.091 Y127.975 E11.93455
G1 X124.317 Y128.439 E11.96457
G1 X123.504 Y128.833 E11.99462
G1 X122.66 Y129.153 E12.02464
G1 X121.79 Y129.398 E12.0547
G1 X120.903 Y129.564 E12.08471
G1 X119.752 Y129.662 E12.12313
G1 X119.431 Y129.671 E12.13382
G1 X119.145 Y129.675 E12.14333
G1 X101.1 Y129.674 E12.74351
G1 X100.402 Y129.665 E12.76673
G1 X99.501 Y129.614 E12.79674
G1 X98.607 Y129.482 E12.8268
G1 X97.729 Y129.273 E12.85682
G1 X96.872 Y128.986 E12.88688
G1 X96.045 Y128.625 E12.91689
G1 X95.252 Y128.192 E12.94694
G1 X94.501 Y127.691 E12.97697
G1 X93.797 Y127.125 E13.00701
G1 X93.146 Y126.499 E13.03705
G1 X92.553 Y125.818 E13.06708
G1 X92.023 Y125.087 E13.09711
G1 X91.559 Y124.312 E13.12716
G1 X91.165 Y123.499 E13.15721
G1 X90.845 Y122.655 E13.18723
G1 X90.601 Y121.785 E13.21728
G1 X90.435 Y120.897 E13.24733
G1 X90.338 Y119.742 E13.28588
G1 X90.329 Y119.409 E13.29696
G1 X90.325 Y119.133 E13.30614
G1 X90.326 Y101.061 E13.90721
G1 X90.335 Y100.396 E13.92933
G1 X90.387 Y99.494 E13.95939
G1 X90.519 Y98.601 E13.98941
G1 X90.729 Y97.723 E14.01944
G1 X91.016 Y96.866 E14.0495
G1 X91.378 Y96.039 E14.07952
G1 X91.811 Y95.247 E14.10954
G1 X92.313 Y94.496 E14.13959
G1 X92.88 Y93.792 E14.16965
G1 X93.506 Y93.142 E14.19967
G1 F1500 E7.69967
;MESH:switch_socket.stl
G0 F6000 X100.939 Y99.86
G0 X100.939 Y100.939
G0 X101.622 Y116.378
G0 X102.45 Y117.55
;TYPE:WALL-INNER
G1 F1500 E14.19967
G1 F1200 X117.55 Y117.55 E14.7019
G1 X117.55 Y116.55 E14.73516
G1 X118.55 Y116.55 E14.76842
G1 X118.55 Y112.05 E14.91809
G1 X117.55 Y112.05 E14.95135
G1 X117.55 Y107.95 E15.08771
G1 X118.55 Y107.95 E15.12097
G1 X118.55 Y103.45 E15.27064
G1 X117.55 Y103.45 E15.3039
G1 X117.55 Y102.45 E15.33716
G1 X102.45 Y102.45 E15.83939
G1 X102.45 Y103.45 E15.87265
G1 X101.45 Y103.45 E15.90591
G1 X101.45 Y107.95 E16.05558
G1 X102.45 Y107.95 E16.08884
G1 X102.45 Y112.05 E16.22521
G1 X101.45 Y112.05 E16.25847
G1 X101.45 Y116.55 E16.40814
G1 X102.45 Y116.55 E16.4414
G1 X102.45 Y117.55 E16.47466
G0 F6000 X102.85 Y117.15
;TYPE:WALL-OUTER
G1 F1200 X117.15 Y117.15 E16.95028
G1 X117.15 Y116.15 E16.98354
G1 X118.15 Y116.15 E17.0168
G1 X118.15 Y112.45 E17.13986
G1 X117.15 Y112.45 E17.17312
G1 X117.15 Y107.55 E17.3361
G1 X118.15 Y107.55 E17.36936
G1 X118.15 Y103.85 E17.49242
G1 X117.15 Y103.85 E17.52568
G1 X117.15 Y102.85 E17.55894
G1 X102.85 Y102.85 E18.03456
G1 X102.85 Y103.85 E18.06782
G1 X101.85 Y103.85 E18.10108
G1 X101.85 Y107.55 E18.22414
G1 X102.85 Y107.55 E18.2574
G1 X102.85 Y112.45 E18.42038
G1 X101.85 Y112.45 E18.45364
G1 X101.85 Y116.15 E18.5767
G1 X102.85 Y116.15 E18.60996
G1 X102.85 Y117.15 E18.64322
G0 F6000 X102.55 Y117.15
G0 X101.622 Y116.378
G0 X101.622 Y112.222
G0 X102.05 Y111.65
;TYPE:WALL-INNER
G1 F1200 X101.525 Y111.65 E18.66068
G1 X101.525 Y108.35 E18.77044
G1 X102.05 Y108.35 E18.7879
G1 X102.05 Y111.65 E18.89766
G0 F6000 X102.622 Y107.778
G0 X101.622 Y107.778
G0 X101.622 Y103.622
G0 X102.622 Y102.622
G0 X117.378 Y102.622
G0 X118.475 Y103.05
G1 F1200 X117.95 Y103.05 E18.91512
G1 X117.95 Y102.05 E18.94838
G1 X102.05 Y102.05 E19.47722
G1 X102.05 Y103.05 E19.51048
G1 X101.525 Y103.05 E19.52794
G1 X101.525 Y101.525 E19.57866
G1 X118.475 Y101.525 E20.14242
G1 X118.475 Y103.05 E20.19314
G0 F6000 X118.475 Y111.65
G1 F1200 X117.95 Y111.65 E20.21061
G1 X117.95 Y108.35 E20.32036
G1 X118.475 Y108.35 E20.33783
G1 X118.475 Y111.65 E20.44758
G0 F6000 X118.475 Y118.475
G1 F1200 X101.525 Y118.475 E21.01134
G1 X101.525 Y116.95 E21.06207
G1 X102.05 Y116.95 E21.07953
G1 X102.05 Y117.95 E21.11279
G1 X117.95 Y117.95 E21.64162
G1 X117.95 Y116.95 E21.67488
G1 X118.475 Y116.95 E21.69234
G1 X118.475 Y118.475 E21.74307
G0 F6000 X118.875 Y118.875
G1 F1200 X101.125 Y118.875 E22.33343
G1 X101.125 Y116.55 E22.41076
G1 X101.125 Y112.05 E22.53268
G1 X101.125 Y107.95 E22.66904
G1 X101.125 Y103.45 E22.79095
G1 X101.125 Y101.125 E22.86828
G1 X118.875 Y101.125 E23.45865
G1 X118.875 Y103.45 E23.53598
G1 X118.875 Y107.95 E23.65789
G1 X118.875 Y112.05 E23.79426
G1 X118.875 Y116.55 E23.91617
G1 X118.875 Y118.875 E23.9935
G0 F6000 X119.275 Y119.275
;TYPE:WALL-OUTER
G1 F1200 X100.725 Y119.275 E24.61048
G1 X100.725 Y100.725 E25.22745
G1 X119.275 Y100.725 E25.84443
G1 X119.275 Y119.275 E26.4614
G0 F6000 X119.005 Y119.005
G0 X118.365 Y117.183
G0 X118.314 Y117.183
;TYPE:SKIN
G1 F1200 X118.24 Y117.109 E26.46488
G0 F6000 X118.109 Y117.543
G1 F1200 X118.314 Y117.748 E26.47453
G0 F6000 X118.109 Y118.109
G1 F1200 X118.314 Y118.314 E26.48417
G0 F6000 X117.748 Y118.314
G1 F1200 X117.543 Y118.109 E26.49381
G0 F6000 X117.183 Y118.314
G1 F1200 X116.978 Y118.109 E26.50346
G0 F6000 X116.617 Y118.314
G1 F1200 X116.412 Y118.109 E26.5131
G0 F6000 X116.051 Y118.314
G1 F1200 X115.846 Y118.109 E26.52274
G0 F6000 X115.486 Y118.314
G1 F1200 X115.281 Y118.109 E26.53238
G0 F6000 X114.92 Y118.314
G1 F1200 X114.715 Y118.109 E26.54203
G0 F6000 X114.354 Y118.314
G1 F1200 X114.149 Y118.109 E26.55167
G0 F6000 X113.789 Y118.314
G1 F1200 X113.583 Y118.109 E26.56133
G0 F6000 X113.223 Y118.314
G1 F1200 X113.018 Y118.109 E26.57098
G0 F6000 X112.657 Y118.314
G1 F1200 X112.452 Y118.109 E26.58062
G0 F6000 X112.091 Y118.314
G1 F1200 X111.886 Y118.109 E26.59026
G0 F6000 X111.526 Y118.314
G1 F1200 X111.321 Y118.109 E26.5999
G0 F6000 X110.96 Y118.314
G1 F1200 X110.755 Y118.109 E26.60955
G0 F6000 X110.394 Y118.314
G1 F1200 X110.189 Y118.109 E26.61919
G0 F6000 X109.829 Y118.314
G1 F1200 X109.624 Y118.109 E26.62883
G0 F6000 X109.263 Y118.314
G1 F1200 X109.058 Y118.109 E26.63847
G0 F6000 X108.697 Y118.314
G1 F1200 X108.492 Y118.109 E26.64812
G0 F6000 X108.132 Y118.314
G1 F1200 X107.927 Y118.109 E26.65776
G0 F6000 X107.566 Y118.314
G1 F1200 X107.361 Y118.109 E26.6674
G0 F6000 X107 Y118.314
G1 F1200 X106.795 Y118.109 E26.67705
G0 F6000 X106.435 Y118.314
G1 F1200 X106.23 Y118.109 E26.68669
G0 F6000 X105.869 Y118.314
G1 F1200 X105.664 Y118.109 E26.69633
G0 F6000 X105.303 Y118.314
G1 F1200 X105.098 Y118.109 E26.70597
G0 F6000 X104.738 Y118.314
G1 F1200 X104.533 Y118.109 E26.71562
G0 F6000 X104.172 Y118.314
G1 F1200 X103.967 Y118.109 E26.72526
G0 F6000 X103.606 Y118.314
G1 F1200 X103.401 Y118.109 E26.7349
G0 F6000 X103.041 Y118.314
G1 F1200 X102.835 Y118.109 E26.74457
G0 F6000 X102.475 Y118.314
G1 F1200 X102.27 Y118.109 E26.75421
G0 F6000 X101.909 Y118.314
G1 F1200 X101.684 Y118.089 E26.76479
G0 F6000 X101.889 Y117.729
G1 F1200 X101.684 Y117.523 E26.77446
G0 F6000 X101.635 Y117.523
G0 X101.707 Y117.132
G0 X102.612 Y117.17
G0 X117.378 Y117.378
G0 X118.378 Y116.378
G0 X118.378 Y113.012
G0 X118.335 Y111.51
G0 X118.277 Y111.489
G1 F1200 X118.109 Y111.321 E26.78236
G0 F6000 X118.314 Y110.96
G1 F1200 X118.109 Y110.755 E26.792
G0 F6000 X118.314 Y110.394
G1 F1200 X118.109 Y110.189 E26.80165
G0 F6000 X118.314 Y109.829
G1 F1200 X118.109 Y109.624 E26.81129
G0 F6000 X118.314 Y109.263
G1 F1200 X118.109 Y109.058 E26.82093
G0 F6000 X118.314 Y108.697
G1 F1200 X118.126 Y108.509 E26.82977
G0 F6000 X118.09 Y108.49
G0 X118.378 Y107.778
G0 X118.365 Y101.909
G0 X118.314 Y101.909
G1 F1200 X118.089 Y101.684 E26.84036
G0 F6000 X117.729 Y101.889
G1 F1200 X117.523 Y101.684 E26.85002
G0 F6000 X117.163 Y101.889
G1 F1200 X116.958 Y101.684 E26.85967
G0 F6000 X116.597 Y101.889
G1 F1200 X116.392 Y101.684 E26.86931
G0 F6000 X116.031 Y101.889
G1 F1200 X115.826 Y101.684 E26.87895
G0 F6000 X115.466 Y101.889
G1 F1200 X115.261 Y101.684 E26.88859
G0 F6000 X114.9 Y101.889
G1 F1200 X114.695 Y101.684 E26.89824
G0 F6000 X114.334 Y101.889
G1 F1200 X114.129 Y101.684 E26.90788
G0 F6000 X113.769 Y101.889
G1 F1200 X113.564 Y101.684 E26.91752
G0 F6000 X113.203 Y101.889
G1 F1200 X112.998 Y101.684 E26.92716
G0 F6000 X112.637 Y101.889
G1 F1200 X112.432 Y101.684 E26.93681
G0 F6000 X112.072 Y101.889
G1 F1200 X111.867 Y101.684 E26.94645
G0 F6000 X111.506 Y101.889
G1 F1200 X111.301 Y101.684 E26.95609
G0 F6000 X110.94 Y101.889
G1 F1200 X110.735 Y101.684 E26.96573
G0 F6000 X110.375 Y101.889
G1 F1200 X110.17 Y101.684 E26.97538
G0 F6000 X109.809 Y101.889
G1 F1200 X109.604 Y101.684 E26.98502
G0 F6000 X109.243 Y101.889
G1 F1200 X109.038 Y101.684 E26.99466
G0 F6000 X108.678 Y101.889
G1 F1200 X108.473 Y101.684 E27.0043
G0 F6000 X108.112 Y101.889
G1 F1200 X107.907 Y101.684 E27.01395
G0 F6000 X107.546 Y101.889
G1 F1200 X107.341 Y101.684 E27.02359
G0 F6000 X106.981 Y101.889
G1 F1200 X106.775 Y101.684 E27.03326
G0 F6000 X106.415 Y101.889
G1 F1200 X106.21 Y101.684 E27.0429
G0 F6000 X105.849 Y101.889
G1 F1200 X105.644 Y101.684 E27.05254
G0 F6000 X105.283 Y101.889
G1 F1200 X105.078 Y101.684 E27.06218
G0 F6000 X104.718 Y101.889
G1 F1200 X104.513 Y101.684 E27.07183
G0 F6000 X104.152 Y101.889
G1 F1200 X103.947 Y101.684 E27.08147
G0 F6000 X103.586 Y101.889
G1 F1200 X103.381 Y101.684 E27.09111
G0 F6000 X103.021 Y101.889
