;FLAVOR:Marlin
;TIME:1822
;Filament used: 1.14788m
;Layer height: 0.16
;MINX:79.702
;MINY:79.702
;MINZ:0.2
;MAXX:140.298
;MAXY:140.298
;MAXZ:5
;Generated with Cura_SteamEngine 4.12.1
M140 S55
M105
M190 S55
M104 S205
M105
M109 S205
M82 ;absolute extrusion mode
; Ender 3 Custom Start G-code
G92 E0 ; Reset Extruder
G28 ; Home all axes
G1 Z2.0 F3000 ; Move Z Axis up little to prevent scratching of Heat Bed
G1 X0.1 Y20 Z0.3 F5000.0 ; Move to start position
G1 X0.1 Y200.0 Z0.3 F1500.0 E15 ; Draw the first line
G1 X0.4 Y200.0 Z0.3 F5000.0 ; Move to side a little
G1 X0.4 Y20 Z0.3 F1500.0 E30 ; Draw the second line
G92 E0 ; Reset Extruder
G1 Z2.0 F3000 ; Move Z Axis up little to prevent scratching of Heat Bed
G1 X5 Y20 Z0.3 F5000.0 ; Move over to prevent blob squish
G92 E0
G92 E0
G1 F1500 E-6.5
;LAYER_COUNT:26
;LAYER:0
M107
G0 F6000 X88.458 Y88.694 Z0.2
;TYPE:SKIRT
G1 F1500 E0
G1 F1200 X88.703 Y88.449 E0.01152
G1 X89.448 Y87.738 E0.04578
G1 X89.689 Y87.518 E0.05663
G1 X90.39 Y86.903 E0.08765
G1 X90.665 Y86.672 E0.09959
G1 X91.471 Y86.028 E0.13391
G1 X91.736 Y85.826 E0.14499
G1 X92.521 Y85.252 E0.17733
G1 X92.802 Y85.055 E0.18875
G1 X93.589 Y84.531 E0.22019
G1 X93.87 Y84.353 E0.23126
G1 X94.748 Y83.821 E0.2654
G1 X95.043 Y83.651 E0.27673
G1 X95.861 Y83.203 E0.30775
G1 X96.171 Y83.042 E0.31936
G1 X97.096 Y82.588 E0.35364
G1 X97.39 Y82.451 E0.36442
G1 X98.244 Y82.075 E0.39546
G1 X98.557 Y81.946 E0.40672
G1 X99.484 Y81.585 E0.43981
G1 X99.822 Y81.462 E0.45177
G1 X100.777 Y81.14 E0.48529
G1 X101.092 Y81.041 E0.49627
G1 X102.007 Y80.775 E0.52797
G1 X102.324 Y80.69 E0.53888
G1 X103.273 Y80.457 E0.57138
G1 X103.634 Y80.377 E0.58368
G1 X104.63 Y80.182 E0.61744
G1 X104.934 Y80.129 E0.6277
G1 X105.876 Y79.983 E0.65941
G1 X106.236 Y79.936 E0.67148
G1 X107.202 Y79.832 E0.7038
G1 X107.53 Y79.804 E0.71474
G1 X108.558 Y79.737 E0.74901
G1 X108.898 Y79.722 E0.76033
G1 X109.834 Y79.702 E0.79147
G1 X110.178 Y79.702 E0.80291
G1 X111.194 Y79.725 E0.83671
G1 X111.553 Y79.741 E0.84866
G1 X112.541 Y79.809 E0.8816
G1 X112.844 Y79.836 E0.89172
G1 X113.768 Y79.936 E0.92263
G1 X114.13 Y79.984 E0.93478
G1 X115.15 Y80.143 E0.96911
G1 X115.477 Y80.201 E0.98016
G1 X116.438 Y80.393 E1.01275
G1 X116.776 Y80.469 E1.02427
G1 X117.685 Y80.693 E1.05541
G1 X118.005 Y80.779 E1.06643
G1 X118.995 Y81.068 E1.10073
G1 X119.32 Y81.17 E1.11206
G1 X120.211 Y81.473 E1.14336
G1 X120.535 Y81.591 E1.15483
G1 X121.445 Y81.946 E1.18732
G1 X121.76 Y82.077 E1.19867
G1 X122.7 Y82.492 E1.23284
G1 X123.002 Y82.633 E1.24393
G1 X123.847 Y83.05 E1.27527
G1 X124.158 Y83.213 E1.28695
G1 X125.044 Y83.701 E1.32059
G1 X125.339 Y83.872 E1.33193
G1 X126.15 Y84.366 E1.36352
G1 X126.428 Y84.543 E1.37448
G1 X127.27 Y85.106 E1.40817
G1 X127.55 Y85.303 E1.41955
G1 X128.31 Y85.861 E1.45091
G1 X128.572 Y86.062 E1.4619
G1 X129.338 Y86.676 E1.49455
G1 X129.608 Y86.902 E1.50626
G1 X130.381 Y87.581 E1.54048
G1 X130.626 Y87.806 E1.55154
G1 X131.302 Y88.453 E1.58267
G1 X131.538 Y88.689 E1.59377
G1 X132.22 Y89.4 E1.62653
G1 X132.461 Y89.662 E1.63837
G1 X133.106 Y90.399 E1.67095
G1 X133.326 Y90.662 E1.68235
G1 X133.943 Y91.433 E1.7152
G1 X134.14 Y91.69 E1.72597
G1 X134.718 Y92.477 E1.75844
G1 X134.917 Y92.762 E1.77001
G1 X135.462 Y93.578 E1.80264
G1 X135.644 Y93.863 E1.81389
G1 X136.158 Y94.71 E1.84684
G1 X136.33 Y95.008 E1.85829
G1 X136.797 Y95.86 E1.8906
G1 X136.953 Y96.159 E1.90182
G1 X137.387 Y97.039 E1.93445
G1 X137.53 Y97.346 E1.94572
G1 X137.925 Y98.243 E1.97832
G1 X138.058 Y98.564 E1.98987
G1 X138.417 Y99.489 E2.02287
G1 X138.53 Y99.801 E2.03391
G1 X138.843 Y100.722 E2.06626
G1 X138.947 Y101.05 E2.07771
G1 X139.222 Y101.994 E2.11041
G1 X139.309 Y102.32 E2.12163
G1 X139.542 Y103.271 E2.1542
G1 X139.618 Y103.614 E2.16589
G1 X139.809 Y104.58 E2.19864
G1 X139.864 Y104.892 E2.20917
G1 X140.015 Y105.861 E2.24179
G1 X140.063 Y106.228 E2.2541
G1 X140.168 Y107.204 E2.28675
G1 X140.196 Y107.518 E2.29724
G1 X140.262 Y108.505 E2.33014
G1 X140.277 Y108.857 E2.34186
G1 X140.298 Y109.83 E2.37423
G1 X140.298 Y110.165 E2.38537
G1 X140.277 Y111.146 E2.418
G1 X140.262 Y111.496 E2.42966
G1 X140.197 Y112.474 E2.46226
G1 X140.168 Y112.8 E2.47314
G1 X140.062 Y113.775 E2.50576
G1 X140.017 Y114.121 E2.51737
G1 X139.866 Y115.1 E2.55031
G1 X139.809 Y115.424 E2.56125
G1 X139.62 Y116.38 E2.59367
G1 X139.543 Y116.729 E2.60555
G1 X139.309 Y117.681 E2.63816
G1 X139.224 Y117.996 E2.64901
G1 X138.947 Y118.949 E2.68202
G1 X138.843 Y119.279 E2.69353
G1 X138.53 Y120.201 E2.72591
G1 X138.413 Y120.522 E2.73728
G1 X138.071 Y121.401 E2.76865
G1 X137.948 Y121.7 E2.7794
G1 X137.552 Y122.605 E2.81226
G1 X137.405 Y122.92 E2.82382
G1 X136.958 Y123.829 E2.85751
G1 X136.802 Y124.13 E2.86878
G1 X136.331 Y124.991 E2.90143
G1 X136.151 Y125.304 E2.91344
G1 X135.636 Y126.15 E2.94638
G1 X135.459 Y126.426 E2.95728
G1 X134.918 Y127.236 E2.98968
G1 X134.717 Y127.523 E3.00133
G1 X134.135 Y128.315 E3.03402
G1 X133.937 Y128.573 E3.04484
G1 X133.324 Y129.338 E3.07744
G1 X133.107 Y129.597 E3.08868
G1 X132.456 Y130.341 E3.12156
G1 X132.216 Y130.603 E3.13338
G1 X131.542 Y131.306 E3.16577
G1 X131.297 Y131.551 E3.1773
G1 X130.552 Y132.262 E3.21155
G1 X130.311 Y132.482 E3.2224
G1 X129.61 Y133.097 E3.25342
G1 X129.335 Y133.328 E3.26537
G1 X128.529 Y133.972 E3.29968
G1 X128.264 Y134.174 E3.31076
G1 X127.479 Y134.748 E3.34311
G1 X127.198 Y134.945 E3.35452
G1 X126.411 Y135.469 E3.38597
G1 X126.13 Y135.647 E3.39703
G1 X125.252 Y136.179 E3.43118
G1 X124.957 Y136.349 E3.4425
G1 X124.139 Y136.797 E3.47352
G1 X123.829 Y136.958 E3.48514
G1 X122.904 Y137.412 E3.51941
G1 X122.611 Y137.548 E3.53015
G1 X121.755 Y137.925 E3.56126
G1 X121.437 Y138.057 E3.57271
G1 X120.511 Y138.417 E3.60576
G1 X120.179 Y138.537 E3.6175
G1 X119.225 Y138.859 E3.65099
G1 X118.911 Y138.958 E3.66194
G1 X117.997 Y139.224 E3.6936
G1 X117.677 Y139.31 E3.70462
G1 X116.728 Y139.543 E3.73712
G1 X116.365 Y139.623 E3.74949
G1 X115.368 Y139.818 E3.78328
G1 X115.066 Y139.871 E3.79347
G1 X114.124 Y140.017 E3.82518
G1 X113.764 Y140.064 E3.83725
G1 X112.798 Y140.168 E3.86957
G1 X112.47 Y140.196 E3.88052
G1 X111.442 Y140.263 E3.91478
G1 X111.102 Y140.278 E3.9261
G1 X110.166 Y140.298 E3.95724
G1 X109.822 Y140.298 E3.96868
G1 X108.806 Y140.275 E4.00248
G1 X108.447 Y140.259 E4.01443
G1 X107.459 Y140.191 E4.04737
G1 X107.15 Y140.163 E4.05769
G1 X106.223 Y140.062 E4.08871
G1 X105.871 Y140.016 E4.10051
G1 X104.854 Y139.858 E4.13475
G1 X104.523 Y139.799 E4.14593
G1 X103.562 Y139.607 E4.17852
G1 X103.226 Y139.532 E4.18997
G1 X102.316 Y139.308 E4.22114
G1 X101.992 Y139.221 E4.2323
G1 X101.003 Y138.932 E4.26657
G1 X100.68 Y138.83 E4.27784
G1 X99.789 Y138.527 E4.30914
G1 X99.465 Y138.409 E4.32061
G1 X98.555 Y138.054 E4.3531
G1 X98.24 Y137.923 E4.36444
G1 X97.3 Y137.508 E4.39862
G1 X96.998 Y137.367 E4.4097
G1 X96.153 Y136.95 E4.44104
G1 X95.842 Y136.787 E4.45272
G1 X94.956 Y136.299 E4.48637
G1 X94.666 Y136.131 E4.49751
G1 X93.852 Y135.636 E4.5292
G1 X93.562 Y135.451 E4.54064
G1 X92.716 Y134.884 E4.57451
G1 X92.439 Y134.69 E4.58576
G1 X91.684 Y134.135 E4.61693
G1 X91.425 Y133.935 E4.62781
G1 X90.653 Y133.316 E4.66072
G1 X90.384 Y133.091 E4.67239
G1 X89.619 Y132.419 E4.70625
G1 X89.373 Y132.193 E4.71736
G1 X88.691 Y131.54 E4.74877
G1 X88.447 Y131.296 E4.76025
G1 X87.774 Y130.592 E4.79264
G1 X87.55 Y130.348 E4.80366
G1 X86.896 Y129.603 E4.83663
G1 X86.666 Y129.329 E4.84853
G1 X86.055 Y128.565 E4.88106
G1 X85.86 Y128.309 E4.89177
G1 X85.277 Y127.515 E4.92453
G1 X85.076 Y127.229 E4.93616
G1 X84.536 Y126.42 E4.96851
G1 X84.356 Y126.137 E4.97966
G1 X83.842 Y125.29 E5.01262
G1 X83.669 Y124.99 E5.02413
G1 X83.198 Y124.13 E5.05675
G1 X83.043 Y123.833 E5.06789
G1 X82.609 Y122.953 E5.10052
G1 X82.462 Y122.637 E5.11212
G1 X82.068 Y121.739 E5.14473
G1 X81.942 Y121.433 E5.15574
G1 X81.586 Y120.518 E5.18839
G1 X81.469 Y120.197 E5.19976
G1 X81.156 Y119.275 E5.23214
G1 X81.053 Y118.947 E5.24358
G1 X80.776 Y117.995 E5.27655
G1 X80.689 Y117.67 E5.28774
G1 X80.456 Y116.718 E5.32034
G1 X80.38 Y116.375 E5.33203
G1 X80.191 Y115.418 E5.36447
G1 X80.136 Y115.105 E5.37504
G1 X79.984 Y114.127 E5.40796
G1 X79.936 Y113.763 E5.42017
G1 X79.831 Y112.787 E5.45282
G1 X79.803 Y112.47 E5.46341
G1 X79.738 Y111.492 E5.49601
G1 X79.723 Y111.143 E5.50762
G1 X79.702 Y110.17 E5.53999
G1 X79.702 Y109.835 E5.55114
G1 X79.723 Y108.854 E5.58377
G1 X79.738 Y108.504 E5.59542
G1 X79.803 Y107.526 E5.62802
G1 X79.832 Y107.2 E5.63891
G1 X79.938 Y106.225 E5.67153
G1 X79.983 Y105.879 E5.68313
G1 X80.134 Y104.9 E5.71608
G1 X80.191 Y104.576 E5.72702
G1 X80.38 Y103.62 E5.75943
G1 X80.457 Y103.271 E5.77132
G1 X80.691 Y102.319 E5.80393
G1 X80.776 Y102.004 E5.81478
G1 X81.053 Y101.051 E5.84779
G1 X81.158 Y100.718 E5.8594
G1 X81.471 Y99.797 E5.89175
G1 X81.587 Y99.477 E5.90308
G1 X81.944 Y98.56 E5.9358
G1 X82.072 Y98.253 E5.94687
G1 X82.466 Y97.356 E5.97945
G1 X82.611 Y97.043 E5.99093
G1 X83.045 Y96.163 E6.02356
G1 X83.199 Y95.867 E6.03466
G1 X83.672 Y95.003 E6.06742
G1 X83.851 Y94.694 E6.0793
G1 X84.364 Y93.851 E6.11212
G1 X84.538 Y93.577 E6.12291
G1 X85.079 Y92.766 E6.15534
G1 X85.285 Y92.472 E6.16728
G1 X85.867 Y91.681 E6.19994
G1 X86.063 Y91.427 E6.21061
G1 X86.676 Y90.662 E6.24322
G1 X86.893 Y90.403 E6.25446
G1 X87.544 Y89.659 E6.28734
G1 X87.784 Y89.397 E6.29916
G1 X88.458 Y88.694 E6.33155
G0 F6000 X88.746 Y88.971
G1 F1200 X88.979 Y88.739 E6.34248
G1 X89.724 Y88.028 E6.37674
G1 X89.953 Y87.818 E6.38707
G1 X90.654 Y87.203 E6.41809
G1 X90.915 Y86.985 E6.4294
G1 X91.721 Y86.341 E6.46371
G1 X91.972 Y86.149 E6.47422
G1 X92.757 Y85.575 E6.50657
G1 X93.024 Y85.388 E6.51741
G1 X93.811 Y84.864 E6.54886
G1 X94.077 Y84.695 E6.55934
G1 X94.955 Y84.163 E6.59348
G1 X95.235 Y84.002 E6.60422
G1 X96.053 Y83.554 E6.63524
G1 X96.348 Y83.401 E6.6463
G1 X97.273 Y82.947 E6.68057
G1 X97.551 Y82.817 E6.69078
G1 X98.405 Y82.441 E6.72181
G1 X98.702 Y82.318 E6.7325
G1 X99.629 Y81.957 E6.76559
G1 X99.95 Y81.841 E6.77694
G1 X100.905 Y81.519 E6.81046
G1 X101.203 Y81.425 E6.82086
G1 X102.118 Y81.159 E6.85255
G1 X102.42 Y81.078 E6.86295
G1 X103.369 Y80.845 E6.89545
G1 X103.711 Y80.77 E6.9071
G1 X104.707 Y80.575 E6.94085
G1 X104.996 Y80.524 E6.95061
G1 X105.938 Y80.378 E6.98232
G1 X106.279 Y80.334 E6.99375
G1 X107.245 Y80.23 E7.02607
G1 X107.556 Y80.203 E7.03645
G1 X108.584 Y80.136 E7.07071
G1 X108.907 Y80.122 E7.08147
G1 X109.843 Y80.102 E7.11261
G1 X110.168 Y80.102 E7.12342
G1 X111.184 Y80.125 E7.15722
G1 X111.525 Y80.14 E7.16857
G1 X112.513 Y80.208 E7.20151
G1 X112.801 Y80.234 E7.21113
G1 X113.725 Y80.334 E7.24204
G1 X114.069 Y80.379 E7.25358
G1 X115.089 Y80.538 E7.28791
G1 X115.399 Y80.593 E7.29838
G1 X116.36 Y80.785 E7.33098
G1 X116.681 Y80.857 E7.34192
G1 X117.59 Y81.081 E7.37306
G1 X117.893 Y81.162 E7.38349
G1 X118.883 Y81.451 E7.41779
G1 X119.192 Y81.549 E7.42857
G1 X120.083 Y81.852 E7.45988
G1 X120.389 Y81.964 E7.47071
G1 X121.299 Y82.319 E7.5032
G1 X121.599 Y82.443 E7.514
G1 X122.539 Y82.858 E7.54817
G1 X122.825 Y82.992 E7.55868
G1 X123.67 Y83.409 E7.59002
G1 X123.965 Y83.563 E7.60109
G1 X124.851 Y84.051 E7.63473
G1 X125.131 Y84.213 E7.64549
G1 X125.942 Y84.707 E7.67707
G1 X126.205 Y84.875 E7.68745
G1 X127.047 Y85.438 E7.72114
G1 X127.313 Y85.625 E7.73196
G1 X128.073 Y86.183 E7.76332
G1 X128.322 Y86.374 E7.77375
G1 X129.088 Y86.988 E7.80641
G1 X129.344 Y87.202 E7.8175
G1 X130.117 Y87.881 E7.85172
G1 X130.35 Y88.095 E7.86225
G1 X131.026 Y88.742 E7.89337
G1 X131.249 Y88.965 E7.90386
G1 X131.931 Y89.676 E7.93663
G1 X132.16 Y89.926 E7.9479
G1 X132.805 Y90.663 E7.98048
G1 X133.014 Y90.912 E7.99129
G1 X133.631 Y91.683 E8.02413
G1 X133.817 Y91.927 E8.03434
G1 X134.395 Y92.714 E8.06681
G1 X134.585 Y92.984 E8.07779
G1 X135.13 Y93.8 E8.11043
G1 X135.302 Y94.071 E8.12111
G1 X135.816 Y94.918 E8.15406
G1 X135.979 Y95.2 E8.16489
G1 X136.446 Y96.052 E8.19721
G1 X136.594 Y96.336 E8.20786
G1 X137.028 Y97.216 E8.2405
G1 X137.163 Y97.507 E8.25117
G1 X137.558 Y98.404 E8.28376
G1 X137.685 Y98.709 E8.29475
G1 X138.044 Y99.634 E8.32775
G1 X138.151 Y99.93 E8.33822
G1 X138.464 Y100.851 E8.37058
G1 X138.563 Y101.162 E8.38143
G1 X138.838 Y102.106 E8.41413
G1 X138.92 Y102.415 E8.42477
G1 X139.153 Y103.366 E8.45733
G1 X139.225 Y103.692 E8.46844
G1 X139.416 Y104.658 E8.50119
G1 X139.469 Y104.954 E8.51119
G1 X139.62 Y105.923 E8.54381
G1 X139.666 Y106.27 E8.55545
G1 X139.771 Y107.246 E8.5881
G1 X139.797 Y107.544 E8.59805
G1 X139.863 Y108.531 E8.63095
G1 X139.877 Y108.865 E8.64207
G1 X139.898 Y109.838 E8.67444
G1 X139.898 Y110.156 E8.68501
G1 X139.877 Y111.137 E8.71765
G1 X139.863 Y111.47 E8.72874
G1 X139.798 Y112.448 E8.76134
G1 X139.771 Y112.757 E8.77165
G1 X139.665 Y113.732 E8.80427
G1 X139.622 Y114.06 E8.81527
G1 X139.471 Y115.039 E8.84822
G1 X139.416 Y115.346 E8.8586
G1 X139.227 Y116.302 E8.89101
G1 X139.154 Y116.633 E8.90228
G1 X138.92 Y117.585 E8.93489
G1 X138.84 Y117.884 E8.94518
G1 X138.563 Y118.837 E8.97819
G1 X138.464 Y119.151 E8.98914
G1 X138.151 Y120.073 E9.02153
G1 X138.04 Y120.377 E9.03229
G1 X137.698 Y121.256 E9.06366
G1 X137.581 Y121.539 E9.07385
G1 X137.185 Y122.444 E9.1067
G1 X137.047 Y122.743 E9.11765
G1 X136.6 Y123.652 E9.15135
G1 X136.451 Y123.938 E9.16207
G1 X135.98 Y124.799 E9.19471
G1 X135.809 Y125.096 E9.20611
G1 X135.294 Y125.942 E9.23905
G1 X135.127 Y126.204 E9.24939
G1 X134.586 Y127.014 E9.28178
G1 X134.395 Y127.286 E9.29284
G1 X133.813 Y128.078 E9.32553
G1 X133.625 Y128.323 E9.3358
G1 X133.012 Y129.088 E9.3684
G1 X132.806 Y129.334 E9.37908
G1 X132.155 Y130.078 E9.41196
G1 X131.928 Y130.326 E9.42314
G1 X131.254 Y131.029 E9.45553
G1 X131.021 Y131.261 E9.46647
G1 X130.276 Y131.972 E9.50072
G1 X130.047 Y132.182 E9.51105
G1 X129.346 Y132.797 E9.54207
G1 X129.085 Y133.015 E9.55338
G1 X128.279 Y133.659 E9.5877
G1 X128.028 Y133.851 E9.59821
G1 X127.243 Y134.425 E9.63055
G1 X126.976 Y134.612 E9.64139
G1 X126.189 Y135.136 E9.67284
G1 X125.923 Y135.305 E9.68332
G1 X125.045 Y135.837 E9.71747
G1 X124.765 Y135.998 E9.72821
G1 X123.947 Y136.446 E9.75923
G1 X123.652 Y136.599 E9.77028
G1 X122.727 Y137.053 E9.80455
G1 X122.45 Y137.182 E9.81472
G1 X121.594 Y137.559 E9.84583
G1 X121.292 Y137.684 E9.8567
G1 X120.366 Y138.044 E9.88974
G1 X120.052 Y138.158 E9.90085
G1 X119.098 Y138.48 E9.93434
G1 X118.799 Y138.574 E9.94477
G1 X117.885 Y138.84 E9.97643
G1 X117.581 Y138.922 E9.9869
G1 X116.632 Y139.155 E10.0194
G1 X116.288 Y139.23 E10.03111
G1 X115.291 Y139.425 E10.0649
G1 X115.004 Y139.476 E10.07459
G1 X114.062 Y139.622 E10.1063
G1 X113.721 Y139.666 E10.11774
G1 X112.755 Y139.77 E10.15005
G1 X112.444 Y139.797 E10.16043
G1 X111.416 Y139.864 E10.1947
G1 X111.093 Y139.878 E10.20545
G1 X110.157 Y139.898 E10.23659
G1 X109.832 Y139.898 E10.2474
G1 X108.816 Y139.875 E10.2812
G1 X108.475 Y139.86 E10.29255
G1 X107.487 Y139.792 E10.32549
G1 X107.193 Y139.765 E10.33531
G1 X106.266 Y139.664 E10.36632
G1 X105.932 Y139.62 E10.37753
G1 X104.915 Y139.462 E10.41176
G1 X104.601 Y139.407 E10.42236
G1 X103.64 Y139.215 E10.45496
G1 X103.321 Y139.144 E10.46583
G1 X102.411 Y138.92 E10.497
G1 X102.104 Y138.837 E10.50758
G1 X101.115 Y138.548 E10.54185
G1 X100.808 Y138.451 E10.55255
G1 X99.917 Y138.148 E10.58386
G1 X99.611 Y138.036 E10.59469
G1 X98.701 Y137.681 E10.62718
G1 X98.401 Y137.557 E10.63798
G1 X97.461 Y137.142 E10.67215
G1 X97.175 Y137.008 E10.68266
G1 X96.33 Y136.591 E10.714
G1 X96.035 Y136.437 E10.72507
G1 X95.149 Y135.949 E10.75871
G1 X94.874 Y135.79 E10.76928
G1 X94.06 Y135.295 E10.80096
G1 X93.785 Y135.119 E10.81182
G1 X92.939 Y134.552 E10.8457
G1 X92.676 Y134.367 E10.85639
G1 X91.921 Y133.812 E10.88756
G1 X91.675 Y133.623 E10.89787
G1 X90.903 Y133.004 E10.93079
G1 X90.648 Y132.791 E10.94184
G1 X89.883 Y132.119 E10.9757
G1 X89.649 Y131.904 E10.98627
G1 X88.967 Y131.251 E11.01768
G1 X88.736 Y131.019 E11.02857
G1 X88.063 Y130.315 E11.06096
G1 X87.851 Y130.084 E11.07139
G1 X87.197 Y129.339 E11.10436
G1 X86.979 Y129.079 E11.11564
G1 X86.368 Y128.315 E11.14818
G1 X86.182 Y128.073 E11.15833
G1 X85.599 Y127.279 E11.1911
G1 X85.409 Y127.007 E11.20213
G1 X84.869 Y126.198 E11.23448
G1 X84.698 Y125.929 E11.24508
G1 X84.184 Y125.082 E11.27804
G1 X84.02 Y124.798 E11.28895
G1 X83.549 Y123.938 E11.32156
