;FLAVOR:Marlin
;TIME:9530
;Filament used: 2.76505m
;Layer height: 0.16
;MINX:82.993
;MINY:85.43
;MINZ:0.2
;MAXX:140.928
;MAXY:157.644
;MAXZ:25.64
;Generated with Cura_SteamEngine 4.12.1
M140 S60
M105
M190 S60
M104 S212
M105
M109 S212
M82 ;absolute extrusion mode
; Ender 3 Custom Start G-code
G92 E0 ; Reset Extruder
G28 ; Home all axes
G1 Z2.0 F3000 ; Move Z Axis up little to prevent scratching of Heat Bed
G1 X0.1 Y20 Z0.3 F5000.0 ; Move to start position
G1 X0.1 Y200.0 Z0.3 F1500.0 E15 ; Draw the first line
G1 X0.4 Y200.0 Z0.3 F5000.0 ; Move to side a little
G1 X0.4 Y20 Z0.3 F1500.0 E30 ; Draw the second line
G92 E0 ; Reset Extruder
G1 Z2.0 F3000 ; Move Z Axis up little to prevent scratching of Heat Bed
G1 X5 Y20 Z0.3 F5000.0 ; Move over to prevent blob squish
G92 E0
G92 E0
G1 F1500 E-6.5
;LAYER_COUNT:187
;LAYER:0
M106 S51
G1 F300 Z0.4
G0 F6000 X87.744 Y87.715 Z0.4
;TYPE:SKIRT
G1 F300 Z0.2
G1 F1500 E0
G1 F1200 X88.33 Y87.185 E0.02628
G1 X88.966 Y86.718 E0.05252
G1 X89.646 Y86.317 E0.07878
G1 X90.364 Y85.987 E0.10506
G1 X91.111 Y85.732 E0.13132
G1 X91.88 Y85.553 E0.15758
G1 X92.664 Y85.453 E0.18386
G1 X93.259 Y85.43 E0.20367
G1 X130.661 Y85.43 E1.44766
G1 X131.45 Y85.47 E1.47394
G1 X132.23 Y85.589 E1.50018
G1 X132.995 Y85.787 E1.52646
G1 X133.735 Y86.061 E1.55271
G1 X134.444 Y86.409 E1.57898
G1 X135.115 Y86.827 E1.60527
G1 X135.739 Y87.31 E1.63152
G1 X136.176 Y87.715 E1.65134
G1 X136.293 Y87.832 E1.65684
G1 X136.823 Y88.418 E1.68312
G1 X137.29 Y89.054 E1.70936
G1 X137.691 Y89.734 E1.73562
G1 X138.021 Y90.452 E1.7619
G1 X138.276 Y91.199 E1.78815
G1 X138.455 Y91.968 E1.81441
G1 X138.555 Y92.752 E1.8407
G1 X138.578 Y93.347 E1.86051
G1 X138.578 Y98.135 E2.01976
G1 X138.614 Y98.175 E2.02155
G1 X138.948 Y98.615 E2.03992
G1 X139.188 Y98.956 E2.05379
G1 X139.609 Y99.624 E2.08005
G1 X139.853 Y100.095 E2.09769
G1 X140.028 Y100.463 E2.11125
G1 X140.331 Y101.193 E2.13753
G1 X140.518 Y101.793 E2.15844
G1 X140.629 Y102.207 E2.17269
G1 X140.795 Y102.979 E2.19896
G1 X140.867 Y103.568 E2.21869
G1 X140.9 Y103.957 E2.23168
G1 X140.928 Y104.634 E2.25421
G1 X140.9 Y105.29 E2.27605
G1 X140.867 Y105.681 E2.2891
G1 X140.761 Y106.463 E2.31535
G1 X140.63 Y107.042 E2.3351
G1 X140.52 Y107.453 E2.34925
G1 X140.277 Y108.204 E2.3755
G1 X140.039 Y108.765 E2.39577
G1 X139.863 Y109.138 E2.40949
G1 X139.49 Y109.834 E2.43575
G1 X139.192 Y110.292 E2.45392
G1 X138.956 Y110.628 E2.46758
G1 X138.578 Y111.113 E2.48803
G1 X138.578 Y116.057 E2.65247
G1 X138.538 Y116.846 E2.67875
G1 X138.419 Y117.626 E2.70499
G1 X138.221 Y118.391 E2.73127
G1 X137.947 Y119.131 E2.75752
G1 X137.822 Y119.385 E2.76693
G1 X137.936 Y120.059 E2.78967
G1 X138.157 Y122.236 E2.86245
G1 X138.197 Y123.025 E2.88872
G1 X138.19 Y123.21 E2.89488
G1 X138.432 Y123.649 E2.91155
G1 X138.838 Y124.655 E2.94764
G1 X139.095 Y125.446 E2.9753
G1 X139.301 Y126.208 E3.00155
G1 X139.428 Y126.988 E3.02784
G1 X139.477 Y127.776 E3.0541
G1 X139.445 Y128.565 E3.08036
G1 X139.333 Y129.347 E3.10664
G1 X139.143 Y130.113 E3.13288
G1 X138.877 Y130.856 E3.15913
G1 X138.525 Y131.591 E3.18624
G1 X137.929 Y132.684 E3.22764
G1 X137.815 Y133.11 E3.24231
G1 X137.572 Y133.862 E3.2686
G1 X137.255 Y134.585 E3.29485
G1 X136.867 Y135.272 E3.3211
G1 X136.411 Y135.917 E3.34737
G1 X135.892 Y136.512 E3.37363
G1 X135.371 Y137.005 E3.39749
G1 X133.765 Y138.389 E3.468
G1 X133.141 Y138.873 E3.49427
G1 X132.472 Y139.292 E3.52052
G1 X131.764 Y139.642 E3.54679
G1 X131.024 Y139.917 E3.57305
G1 X130.26 Y140.117 E3.59931
G1 X130.005 Y140.156 E3.60789
G1 X130.208 Y140.403 E3.61853
G1 X130.645 Y141.06 E3.64477
G1 X131.014 Y141.758 E3.67103
G1 X131.359 Y142.634 E3.70235
G1 X131.955 Y144.465 E3.76639
G1 X132.161 Y145.227 E3.79264
G1 X132.289 Y146.006 E3.8189
G1 X132.338 Y146.794 E3.84516
G1 X132.306 Y147.584 E3.87146
G1 X132.195 Y148.365 E3.89769
G1 X131.955 Y149.293 E3.92958
G1 X131.359 Y151.124 E3.99362
G1 X131.077 Y151.862 E4.0199
G1 X130.722 Y152.567 E4.04615
G1 X130.297 Y153.233 E4.07243
G1 X129.807 Y153.852 E4.09868
G1 X129.257 Y154.419 E4.12496
G1 X128.531 Y155.017 E4.15624
G1 X126.971 Y156.152 E4.22041
G1 X126.31 Y156.584 E4.24667
G1 X125.608 Y156.947 E4.27296
G1 X124.874 Y157.236 E4.29919
G1 X124.113 Y157.45 E4.32549
G1 X123.336 Y157.586 E4.35172
G1 X122.252 Y157.644 E4.38783
G1 X118.767 Y157.586 E4.50376
G1 X117.979 Y157.533 E4.53002
G1 X117.201 Y157.4 E4.55628
G1 X116.124 Y157.078 E4.59366
G1 X114.898 Y156.612 E4.63729
G1 X114.25 Y156.513 E4.65909
G1 X113.485 Y156.315 E4.68537
G1 X112.745 Y156.041 E4.71162
G1 X112.108 Y155.721 E4.73533
G1 X111.693 Y155.614 E4.74958
G1 X111.274 Y155.459 E4.76444
G1 X111.211 Y155.489 E4.76676
G1 X110.467 Y155.753 E4.79302
G1 X110.137 Y155.826 E4.80426
G1 X109.605 Y156.102 E4.82419
G1 X108.871 Y156.393 E4.85046
G1 X108.111 Y156.609 E4.87673
G1 X107.518 Y156.721 E4.89681
G1 X105.119 Y157.079 E4.97748
G1 X104.515 Y157.145 E4.99769
G1 X101.441 Y157.361 E5.10018
G1 X100.651 Y157.376 E5.12646
G1 X99.864 Y157.312 E5.15273
G1 X99.088 Y157.168 E5.17898
G1 X98.33 Y156.946 E5.20525
G1 X97.598 Y156.649 E5.23152
G1 X96.9 Y156.28 E5.25778
G1 X96.305 Y155.887 E5.2815
G1 X94.745 Y154.752 E5.34566
G1 X94.131 Y154.256 E5.37192
G1 X93.57 Y153.7 E5.39819
G1 X93.068 Y153.09 E5.42446
G1 X92.631 Y152.433 E5.45071
G1 X92.262 Y151.735 E5.47697
G1 X91.917 Y150.859 E5.50828
G1 X91.321 Y149.028 E5.57232
G1 X91.115 Y148.266 E5.59858
G1 X90.987 Y147.487 E5.62483
G1 X90.938 Y146.699 E5.65109
G1 X90.97 Y145.909 E5.67739
G1 X91.081 Y145.128 E5.70363
G1 X91.321 Y144.2 E5.73551
G1 X91.917 Y142.369 E5.79955
G1 X92.199 Y141.631 E5.82583
G1 X92.554 Y140.926 E5.85208
G1 X92.979 Y140.26 E5.87836
G1 X93.156 Y140.036 E5.88786
G1 X92.271 Y139.602 E5.92064
G1 X90.16 Y138.363 E6.00205
G1 X89.5 Y137.929 E6.02833
G1 X88.887 Y137.431 E6.05459
G1 X88.328 Y136.873 E6.08086
G1 X87.828 Y136.262 E6.10712
G1 X87.392 Y135.604 E6.13338
G1 X87.107 Y135.075 E6.15336
G1 X86.076 Y132.976 E6.23114
G1 X85.706 Y132.518 E6.25073
G1 X85.275 Y131.856 E6.277
G1 X84.912 Y131.155 E6.30326
G1 X84.597 Y130.343 E6.33222
G1 X84.345 Y129.568 E6.35933
G1 X84.139 Y128.806 E6.38558
G1 X84.012 Y128.026 E6.41187
G1 X83.963 Y127.238 E6.43813
G1 X83.995 Y126.449 E6.46439
G1 X84.106 Y125.667 E6.49066
G1 X84.345 Y124.744 E6.52237
G1 X84.597 Y123.969 E6.54948
G1 X84.879 Y123.231 E6.57575
G1 X85.234 Y122.526 E6.60201
G1 X85.659 Y121.86 E6.62829
G1 X85.873 Y121.589 E6.63977
G1 X85.962 Y120.309 E6.68245
G1 X86.056 Y119.525 E6.70871
G1 X86.091 Y119.37 E6.71399
G1 X85.899 Y118.952 E6.72929
G1 X85.644 Y118.205 E6.75555
G1 X85.465 Y117.436 E6.78181
G1 X85.365 Y116.652 E6.80809
G1 X85.342 Y116.057 E6.8279
G1 X85.342 Y111.117 E6.9922
G1 X85.305 Y111.076 E6.99404
G1 X84.971 Y110.636 E7.01241
G1 X84.731 Y110.295 E7.02628
G1 X84.303 Y109.614 E7.05303
G1 X84.007 Y109.032 E7.07475
G1 X83.837 Y108.66 E7.08836
G1 X83.545 Y107.926 E7.11463
G1 X83.395 Y107.431 E7.13183
G1 X83.29 Y107.038 E7.14536
G1 X83.125 Y106.266 E7.17162
G1 X83.054 Y105.684 E7.19112
G1 X83.021 Y105.295 E7.2041
G1 X82.993 Y104.618 E7.22664
G1 X83.021 Y103.96 E7.24855
G1 X83.054 Y103.57 E7.26156
G1 X83.124 Y102.992 E7.28093
G1 X83.304 Y102.157 E7.30934
G1 X83.412 Y101.761 E7.32299
G1 X83.658 Y101.01 E7.34927
G1 X83.878 Y100.495 E7.3679
G1 X84.05 Y100.129 E7.38135
G1 X84.421 Y99.433 E7.40758
G1 X84.739 Y98.945 E7.42696
G1 X84.98 Y98.604 E7.44085
G1 X85.342 Y98.143 E7.46034
G1 X85.342 Y93.347 E7.61986
G1 X85.382 Y92.558 E7.64613
G1 X85.501 Y91.778 E7.67238
G1 X85.699 Y91.013 E7.69866
G1 X85.973 Y90.273 E7.7249
G1 X86.321 Y89.564 E7.75117
G1 X86.739 Y88.893 E7.77747
G1 X87.222 Y88.269 E7.80371
G1 X87.627 Y87.832 E7.82353
G1 X87.744 Y87.715 E7.82903
G0 F6000 X88.026 Y87.997
G1 F1200 X88.598 Y87.483 E7.85461
G1 X89.22 Y87.03 E7.8802
G1 X89.885 Y86.644 E7.90578
G1 X90.587 Y86.329 E7.93137
G1 X91.318 Y86.089 E7.95696
G1 X92.069 Y85.926 E7.98252
G1 X92.834 Y85.842 E8.00811
G1 X93.259 Y85.83 E8.02226
G1 X130.661 Y85.83 E9.26625
G1 X131.429 Y85.87 E9.29183
G1 X132.189 Y85.989 E9.31741
G1 X132.932 Y86.187 E9.34299
G1 X133.651 Y86.461 E9.36858
G1 X134.337 Y86.808 E9.39415
G1 X134.984 Y87.224 E9.41973
G1 X135.584 Y87.705 E9.44531
G1 X135.894 Y87.997 E9.45948
G1 X136.011 Y88.114 E9.46498
G1 X136.525 Y88.686 E9.49056
G1 X136.978 Y89.308 E9.51615
G1 X137.364 Y89.973 E9.54172
G1 X137.679 Y90.675 E9.56731
G1 X137.919 Y91.406 E9.5929
G1 X138.082 Y92.157 E9.61846
G1 X138.166 Y92.922 E9.64406
G1 X138.178 Y93.347 E9.6582
G1 X138.178 Y98.289 E9.82257
G1 X138.316 Y98.443 E9.82945
G1 X138.62 Y98.845 E9.84622
G1 X138.86 Y99.186 E9.86008
G1 X139.27 Y99.837 E9.88567
G1 X139.492 Y100.267 E9.90177
G1 X139.667 Y100.635 E9.91532
G1 X139.961 Y101.346 E9.94091
G1 X140.132 Y101.897 E9.9601
G1 X140.243 Y102.311 E9.97436
G1 X140.403 Y103.063 E9.99993
G1 X140.469 Y103.601 E10.01796
G1 X140.502 Y103.99 E10.03094
G1 X140.528 Y104.634 E10.05238
G1 X140.502 Y105.256 E10.07308
G1 X140.469 Y105.647 E10.08613
G1 X140.364 Y106.409 E10.11172
G1 X140.243 Y106.938 E10.12977
G1 X140.133 Y107.349 E10.14392
G1 X139.896 Y108.081 E10.16951
G1 X139.677 Y108.594 E10.18806
G1 X139.501 Y108.967 E10.20178
G1 X139.137 Y109.644 E10.22734
G1 X138.865 Y110.062 E10.24393
G1 X138.629 Y110.398 E10.25759
G1 X138.178 Y110.973 E10.28189
G1 X138.178 Y116.057 E10.45099
G1 X138.138 Y116.825 E10.47657
G1 X138.019 Y117.585 E10.50215
G1 X137.821 Y118.328 E10.52773
G1 X137.547 Y119.047 E10.55332
G1 X137.413 Y119.312 E10.5632
G1 X137.538 Y120.1 E10.58973
G1 X137.759 Y122.277 E10.66251
G1 X137.797 Y123.045 E10.68809
G1 X137.787 Y123.297 E10.69647
G1 X138.133 Y123.951 E10.72108
G1 X138.458 Y124.778 E10.75064
G1 X138.715 Y125.569 E10.7783
G1 X138.914 Y126.312 E10.80388
G1 X139.035 Y127.072 E10.82948
G1 X139.077 Y127.84 E10.85506
G1 X139.039 Y128.608 E10.88064
G1 X138.921 Y129.368 E10.90622
G1 X138.725 Y130.112 E10.93181
G1 X138.453 Y130.831 E10.95737
G1 X138.174 Y131.399 E10.97842
G1 X137.579 Y132.49 E11.01975
G1 X137.556 Y132.527 E11.0212
G1 X137.428 Y133.007 E11.03773
G1 X137.191 Y133.738 E11.06329
G1 X136.88 Y134.442 E11.08888
G1 X136.497 Y135.109 E11.11447
G1 X136.047 Y135.732 E11.14003
G1 X135.534 Y136.306 E11.16563
G1 X135.11 Y136.702 E11.18493
G1 X133.504 Y138.086 E11.25544
G1 X132.896 Y138.557 E11.28102
G1 X132.242 Y138.962 E11.30661
G1 X131.55 Y139.298 E11.33219
G1 X130.827 Y139.56 E11.35777
G1 X130.08 Y139.745 E11.38337
G1 X129.378 Y139.846 E11.40695
G1 X129.207 Y139.862 E11.41267
G1 X129.437 Y140.092 E11.42349
G1 X129.922 Y140.689 E11.44907
G1 X130.342 Y141.334 E11.47467
G1 X130.693 Y142.018 E11.50024
G1 X130.979 Y142.758 E11.52663
G1 X131.575 Y144.589 E11.59067
G1 X131.774 Y145.331 E11.61622
G1 X131.896 Y146.091 E11.64182
G1 X131.938 Y146.859 E11.6674
G1 X131.9 Y147.627 E11.69298
G1 X131.783 Y148.387 E11.71856
G1 X131.575 Y149.169 E11.74547
G1 X130.979 Y151 E11.80951
G1 X130.703 Y151.718 E11.8351
G1 X130.354 Y152.404 E11.8607
G1 X129.936 Y153.05 E11.88629
G1 X129.453 Y153.648 E11.91186
G1 X128.911 Y154.194 E11.93744
G1 X128.296 Y154.694 E11.96381
G1 X126.736 Y155.829 E12.02797
G1 X126.091 Y156.248 E12.05355
G1 X125.406 Y156.599 E12.07915
G1 X124.689 Y156.876 E12.10472
G1 X123.947 Y157.078 E12.1303
G1 X123.187 Y157.201 E12.1559
G1 X122.259 Y157.244 E12.1868
G1 X118.774 Y157.186 E12.30273
G1 X118.007 Y157.133 E12.3283
G1 X117.249 Y157.001 E12.35389
G1 X116.267 Y156.704 E12.38801
G1 X115.008 Y156.225 E12.43282
G1 X114.291 Y156.113 E12.45695
G1 X113.548 Y155.915 E12.48253
G1 X112.829 Y155.641 E12.50812
G1 X112.244 Y155.344 E12.52994
G1 X111.756 Y155.214 E12.54674
G1 X111.258 Y155.024 E12.56447
G1 X111.04 Y155.127 E12.57249
G1 X110.314 Y155.381 E12.59807
G1 X109.992 Y155.451 E12.60903
G1 X109.402 Y155.755 E12.6311
G1 X108.685 Y156.033 E12.65668
G1 X107.943 Y156.236 E12.68227
G1 X107.459 Y156.325 E12.69863
G1 X105.06 Y156.683 E12.77931
G1 X104.487 Y156.746 E12.79848
G1 X101.413 Y156.962 E12.90097
G1 X100.644 Y156.976 E12.92656
G1 X99.877 Y156.91 E12.95216
G1 X99.122 Y156.765 E12.97773
G1 X98.386 Y156.542 E13.00331
G1 X97.677 Y156.244 E13.02889
G1 X97.002 Y155.874 E13.05449
G1 X96.54 Y155.564 E13.073
G1 X94.98 Y154.429 E13.13716
G1 X94.383 Y153.945 E13.16272
G1 X93.839 Y153.401 E13.18831
G1 X93.354 Y152.804 E13.21389
G1 X92.934 Y152.159 E13.23949
G1 X92.583 Y151.475 E13.26507
G1 X92.297 Y150.735 E13.29145
G1 X91.701 Y148.904 E13.3555
G1 X91.502 Y148.162 E13.38105
G1 X91.38 Y147.402 E13.40665
G1 X91.338 Y146.634 E13.43223
G1 X91.376 Y145.866 E13.45781
G1 X91.493 Y145.106 E13.48338
G1 X91.701 Y144.324 E13.5103
G1 X92.297 Y142.493 E13.57434
G1 X92.573 Y141.775 E13.59992
G1 X92.922 Y141.089 E13.62552
G1 X93.34 Y140.443 E13.65111
G1 X93.81 Y139.861 E13.676
G1 X93.415 Y139.723 E13.68991
G1 X92.473 Y139.257 E13.72487
G1 X90.362 Y138.018 E13.80628
G1 X89.72 Y137.595 E13.83185
G1 X89.125 Y137.107 E13.85745
G1 X88.584 Y136.56 E13.88303
G1 X88.103 Y135.96 E13.90861
G1 X87.687 Y135.314 E13.93417
G1 X87.466 Y134.899 E13.94981
G1 X86.418 Y132.763 E14.02894
G1 X86.018 Y132.266 E14.05016
G1 X85.6 Y131.62 E14.07575
G1 X85.252 Y130.934 E14.10133
G1 X84.978 Y130.219 E14.1268
G1 X84.726 Y129.444 E14.15391
G1 X84.526 Y128.701 E14.1795
G1 X84.405 Y127.942 E14.20506
G1 X84.363 Y127.174 E14.23064
G1 X84.401 Y126.406 E14.25622
G1 X84.519 Y125.646 E14.2818
G1 X84.726 Y124.868 E14.30858
G1 X84.978 Y124.093 E14.33568
G1 X85.253 Y123.375 E14.36125
G1 X85.602 Y122.689 E14.38685
G1 X86.02 Y122.043 E14.41244
G1 X86.264 Y121.74 E14.42538
G1 X86.361 Y120.337 E14.47216
G1 X86.454 Y119.573 E14.49776
G1 X86.51 Y119.329 E14.50608
G1 X86.241 Y118.729 E14.52795
G1 X86.001 Y117.998 E14.55354
G1 X85.838 Y117.247 E14.5791
G1 X85.754 Y116.482 E14.6047
G1 X85.742 Y116.057 E14.61884
G1 X85.742 Y110.963 E14.78827
G1 X85.603 Y110.808 E14.79519
G1 X85.299 Y110.406 E14.81196
G1 X85.059 Y110.065 E14.82583
G1 X84.651 Y109.418 E14.85127
G1 X84.37 Y108.866 E14.87187
G1 X84.2 Y108.494 E14.88547
G1 X83.918 Y107.779 E14.91104
G1 X83.782 Y107.328 E14.9267
G1 X83.677 Y106.935 E14.94023
G1 X83.517 Y106.183 E14.9658
G1 X83.452 Y105.651 E14.98363
G1 X83.419 Y105.262 E14.99662
G1 X83.393 Y104.618 E15.01805
G1 X83.419 Y103.994 E15.03882
G1 X83.452 Y103.604 E15.05184
G1 X83.52 Y103.055 E15.07024
G1 X83.69 Y102.262 E15.09722
G1 X83.798 Y101.866 E15.11087
G1 X84.038 Y101.135 E15.13646
G1 X84.24 Y100.666 E15.15344
G1 X84.412 Y100.3 E15.16689
G1 X84.775 Y99.621 E15.1925
G1 X85.066 Y99.176 E15.21019
G1 X85.307 Y98.835 E15.22407
G1 X85.742 Y98.283 E15.24745
G1 X85.742 Y93.347 E15.41162
G1 X85.782 Y92.579 E15.4372
G1 X85.901 Y91.819 E15.46279
G1 X86.099 Y91.076 E15.48836
G1 X86.373 Y90.357 E15.51395
G1 X86.72 Y89.671 E15.53952
G1 X87.136 Y89.024 E15.5651
G1 X87.617 Y88.424 E15.59068
G1 X87.909 Y88.114 E15.60485
G1 X88.026 Y87.997 E15.61035
G0 F6000 X88.309 Y88.28
G1 F1200 X88.866 Y87.78 E15.63524
G1 X89.472 Y87.343 E15.66009
G1 X90.122 Y86.972 E15.68499
G1 X90.808 Y86.673 E15.70988
G1 X91.522 Y86.449 E15.73477
G1 X92.255 Y86.302 E15.75963
G1 X93.259 Y86.23 E15.79311
G1 X130.661 Y86.23 E17.03711
G1 X131.408 Y86.27 E17.06199
G1 X132.146 Y86.389 E17.08685
G1 X132.868 Y86.587 E17.11175
G1 X133.564 Y86.86 E17.13662
G1 X134.227 Y87.207 E17.1615
G1 X134.85 Y87.622 E17.1864
G1 X135.611 Y88.28 E17.21986
G1 X135.728 Y88.397 E17.22537
G1 X136.228 Y88.954 E17.25026
G1 X136.665 Y89.56 E17.27511
G1 X137.036 Y90.21 E17.3
G1 X137.335 Y90.896 E17.32489
G1 X137.559 Y91.61 E17.34978
G1 X137.706 Y92.343 E17.37465
G1 X137.778 Y93.347 E17.40813
G1 X137.778 Y98.443 E17.57762
G1 X138.019 Y98.711 E17.58961
G1 X138.293 Y99.075 E17.60476
G1 X138.533 Y99.416 E17.61863
G1 X138.931 Y100.05 E17.64353
G1 X139.131 Y100.439 E17.65808
G1 X139.306 Y100.807 E17.67163
G1 X139.59 Y101.499 E17.69651
G1 X139.745 Y102 E17.71395
G1 X139.856 Y102.414 E17.72821
G1 X140.011 Y103.146 E17.75309
G1 X140.07 Y103.635 E17.76948
G1 X140.103 Y104.024 E17.78246
G1 X140.128 Y104.634 E17.80277
G1 X140.103 Y105.223 E17.82237
G1 X140.07 Y105.614 E17.83542
G1 X139.968 Y106.355 E17.8603
G1 X139.857 Y106.835 E17.87669
G1 X139.747 Y107.246 E17.89084
G1 X139.515 Y107.957 E17.91571
G1 X139.316 Y108.423 E17.93257
G1 X139.14 Y108.796 E17.94629
G1 X138.785 Y109.455 E17.97118
G1 X138.537 Y109.832 E17.98619
