;FLAVOR:Marlin
;TIME:9298
;Filament used: 2.45642m
;Layer height: 0.16
;MINX:81.033
;MINY:90.753
;MINZ:0.2
;MAXX:138.967
;MAXY:163.772
;MAXZ:11.24
;Generated with Cura_SteamEngine 4.12.1
M140 S55
M105
M190 S55
M104 S205
M105
M109 S205
M82 ;absolute extrusion mode
; Ender 3 Custom Start G-code
G92 E0 ; Reset Extruder
G28 ; Home all axes
G1 Z2.0 F3000 ; Move Z Axis up little to prevent scratching of Heat Bed
G1 X0.1 Y20 Z0.3 F5000.0 ; Move to start position
G1 X0.1 Y200.0 Z0.3 F1500.0 E15 ; Draw the first line
G1 X0.4 Y200.0 Z0.3 F5000.0 ; Move to side a little
G1 X0.4 Y20 Z0.3 F1500.0 E30 ; Draw the second line
G92 E0 ; Reset Extruder
G1 Z2.0 F3000 ; Move Z Axis up little to prevent scratching of Heat Bed
G1 X5 Y20 Z0.3 F5000.0 ; Move over to prevent blob squish
G92 E0
G92 E0
G1 F1500 E-6.5
;LAYER_COUNT:95
;LAYER:0
M107
G0 F6000 X87.033 Y95.791 Z0.2
;TYPE:SKIRT
G1 F1500 E0
G1 F1200 X88.719 Y94.272 E0.07548
G1 X89.332 Y93.774 E0.10175
G1 X89.992 Y93.34 E0.12802
G1 X90.692 Y92.975 E0.15428
G1 X91.426 Y92.683 E0.18055
G1 X92.001 Y92.512 E0.2005
G1 X93.676 Y92.082 E0.25802
G1 X94.363 Y91.938 E0.28137
G1 X95.593 Y91.738 E0.32281
G1 X96.378 Y91.651 E0.34908
G1 X97.408 Y91.657 E0.38334
G1 X98.845 Y91.761 E0.43126
G1 X99.677 Y91.867 E0.45916
G1 X101.267 Y92.156 E0.51291
G1 X101.388 Y92.186 E0.51705
G1 X101.966 Y92.091 E0.53654
G1 X103.355 Y91.96 E0.58294
G1 X104.188 Y91.824 E0.61101
G1 X105.425 Y91.475 E0.65376
G1 X106.195 Y91.299 E0.68003
G1 X107.071 Y91.196 E0.70937
G1 X108.472 Y91.111 E0.75605
G1 X109.521 Y91.118 E0.79094
G1 X109.97 Y91.151 E0.80592
G1 X110.511 Y91.06 E0.82416
G1 X110.952 Y90.998 E0.83897
G1 X112.744 Y90.8 E0.89894
G1 X113.533 Y90.753 E0.92523
G1 X114.359 Y90.79 E0.95273
G1 X116.234 Y90.973 E1.01539
G1 X117.386 Y91.173 E1.05428
G1 X119.136 Y91.615 E1.11431
G1 X120.167 Y91.954 E1.15041
G1 X121.599 Y92.537 E1.20183
G1 X122.315 Y92.871 E1.22811
G1 X122.846 Y93.181 E1.24856
G1 X123.325 Y93.486 E1.26745
G1 X123.617 Y93.425 E1.27737
G1 X124.751 Y93.27 E1.31544
G1 X125.538 Y93.203 E1.34171
G1 X126.327 Y93.215 E1.36795
G1 X127.111 Y93.308 E1.39421
G1 X128.079 Y93.536 E1.42729
G1 X129.199 Y93.877 E1.46623
G1 X129.942 Y94.145 E1.4925
G1 X130.654 Y94.487 E1.51877
G1 X131.327 Y94.899 E1.54501
G1 X132.2 Y95.591 E1.58207
G1 X133.314 Y96.613 E1.63235
G1 X133.868 Y97.176 E1.65862
G1 X134.363 Y97.792 E1.6849
G1 X134.792 Y98.454 E1.71114
G1 X135.153 Y99.157 E1.73743
G1 X135.435 Y99.878 E1.76317
G1 X135.761 Y100.848 E1.79721
G1 X136.14 Y101.28 E1.81632
G1 X136.599 Y101.923 E1.8426
G1 X136.99 Y102.609 E1.86886
G1 X137.309 Y103.331 E1.89512
G1 X137.599 Y104.254 E1.92729
G1 X137.815 Y105.129 E1.95727
G1 X137.965 Y105.904 E1.98353
G1 X138.036 Y106.69 E2.00978
G1 X138.027 Y107.48 E2.03605
G1 X137.938 Y108.265 E2.06233
G1 X137.659 Y109.413 E2.10162
G1 X137.42 Y110.147 E2.1273
G1 X137.138 Y110.885 E2.15357
G1 X136.782 Y111.59 E2.17984
G1 X136.357 Y112.255 E2.20609
G1 X136.03 Y112.669 E2.22364
G1 X135.946 Y113.645 E2.25622
G1 X136.061 Y113.896 E2.2654
G1 X136.316 Y114.643 E2.29166
G1 X136.495 Y115.412 E2.31792
G1 X136.595 Y116.196 E2.3442
G1 X136.618 Y116.791 E2.36401
G1 X136.618 Y121.015 E2.5045
G1 X136.653 Y121.054 E2.50624
G1 X136.978 Y121.481 E2.52409
G1 X137.219 Y121.822 E2.53798
G1 X137.546 Y122.326 E2.55796
G1 X137.924 Y123.036 E2.58471
G1 X138.089 Y123.389 E2.59767
G1 X138.387 Y124.121 E2.62396
G1 X138.557 Y124.672 E2.64314
G1 X138.668 Y125.086 E2.6574
G1 X138.834 Y125.858 E2.68366
G1 X138.906 Y126.448 E2.70343
G1 X138.939 Y126.838 E2.71645
G1 X138.967 Y127.514 E2.73895
G1 X138.94 Y128.168 E2.76072
G1 X138.907 Y128.56 E2.7738
G1 X138.801 Y129.343 E2.80008
G1 X138.669 Y129.923 E2.81987
G1 X138.559 Y130.334 E2.83402
G1 X138.316 Y131.085 E2.86027
G1 X138.079 Y131.644 E2.88047
G1 X137.905 Y132.013 E2.89404
G1 X137.532 Y132.709 E2.9203
G1 X137.221 Y133.186 E2.93924
G1 X136.983 Y133.523 E2.95296
G1 X136.618 Y133.988 E2.97262
G1 X136.618 Y138.221 E3.11341
G1 X136.578 Y139.01 E3.13969
G1 X136.459 Y139.79 E3.16593
G1 X136.261 Y140.555 E3.19221
G1 X136.008 Y141.237 E3.21641
G1 X136.028 Y141.358 E3.22049
G1 X136.122 Y142.275 E3.25115
G1 X136.164 Y143.261 E3.28397
G1 X136.373 Y143.554 E3.29594
G1 X136.763 Y144.24 E3.32219
G1 X137.083 Y144.963 E3.34848
G1 X137.217 Y145.341 E3.36182
G1 X137.458 Y146.083 E3.38777
G1 X137.663 Y146.846 E3.41405
G1 X137.791 Y147.625 E3.44031
G1 X137.839 Y148.413 E3.46656
G1 X137.807 Y149.203 E3.49286
G1 X137.695 Y149.984 E3.5191
G1 X137.505 Y150.751 E3.54538
G1 X137.239 Y151.494 E3.57163
G1 X136.94 Y152.129 E3.59498
G1 X136.472 Y153.017 E3.62836
G1 X136.106 Y153.813 E3.6575
G1 X135.777 Y154.902 E3.69534
G1 X135.511 Y155.645 E3.72159
G1 X135.221 Y156.263 E3.74429
G1 X134.564 Y157.518 E3.79141
G1 X134.163 Y158.198 E3.81767
G1 X133.695 Y158.834 E3.84393
G1 X133.301 Y159.281 E3.86375
G1 X132.331 Y160.299 E3.91052
G1 X131.758 Y160.842 E3.93677
G1 X130.815 Y161.534 E3.97567
G1 X129.476 Y162.37 E4.02818
G1 X128.786 Y162.754 E4.05444
G1 X128.06 Y163.066 E4.08072
G1 X127.307 Y163.303 E4.10698
G1 X126.534 Y163.463 E4.13323
G1 X125.366 Y163.554 E4.1722
G1 X123.86 Y163.558 E4.22229
G1 X122.943 Y163.506 E4.25284
G1 X121.318 Y163.318 E4.30725
G1 X120.21 Y163.108 E4.34476
G1 X118.852 Y162.747 E4.39149
G1 X118.569 Y162.659 E4.40135
G1 X118.248 Y162.695 E4.41209
G1 X117.577 Y162.871 E4.43516
G1 X116.804 Y163.032 E4.46143
G1 X115.974 Y163.116 E4.48917
G1 X114.426 Y163.19 E4.54072
G1 X113.932 Y163.198 E4.55715
G1 X112.524 Y163.176 E4.60399
G1 X112.278 Y163.168 E4.61217
G1 X110.013 Y163.061 E4.68759
G1 X109.227 Y162.984 E4.71386
G1 X108.453 Y162.828 E4.74012
G1 X107.699 Y162.594 E4.76638
G1 X107.425 Y162.508 E4.77593
G1 X105.802 Y162.442 E4.82996
G1 X105.679 Y162.432 E4.83406
G1 X105.352 Y162.579 E4.84598
G1 X104.971 Y162.716 E4.85945
G1 X103.596 Y163.17 E4.90761
G1 X102.834 Y163.379 E4.93389
G1 X102.196 Y163.493 E4.95545
G1 X100.681 Y163.698 E5.0063
G1 X99.655 Y163.768 E5.0405
G1 X98.088 Y163.772 E5.09262
G1 X97.393 Y163.743 E5.11576
G1 X95.978 Y163.62 E5.163
G1 X95.195 Y163.512 E5.18929
G1 X94.604 Y163.375 E5.20946
G1 X93.429 Y163.055 E5.24997
G1 X92.43 Y162.859 E5.28383
G1 X91.664 Y162.668 E5.31009
G1 X90.921 Y162.4 E5.33636
G1 X90.209 Y162.059 E5.36261
G1 X89.455 Y161.592 E5.39211
G1 X88.168 Y160.69 E5.44438
G1 X87.545 Y160.205 E5.47064
G1 X86.975 Y159.659 E5.4969
G1 X86.462 Y159.058 E5.52318
G1 X85.906 Y158.23 E5.55635
G1 X84.98 Y156.641 E5.61752
G1 X84.617 Y155.94 E5.64378
G1 X84.291 Y155.093 E5.67396
G1 X83.862 Y153.754 E5.72073
G1 X83.82 Y153.705 E5.72287
G1 X83.369 Y153.057 E5.74913
G1 X82.985 Y152.367 E5.7754
G1 X82.567 Y151.335 E5.81243
G1 X82.326 Y150.592 E5.83841
G1 X82.12 Y149.829 E5.86469
G1 X81.993 Y149.05 E5.89095
G1 X81.945 Y148.261 E5.91724
G1 X81.978 Y147.472 E5.9435
G1 X82.089 Y146.691 E5.96974
G1 X82.326 Y145.775 E6.00121
G1 X82.567 Y145.033 E6.02716
G1 X82.849 Y144.296 E6.0534
G1 X83.204 Y143.59 E6.07969
G1 X83.628 Y142.924 E6.10595
G1 X83.908 Y142.571 E6.12093
G1 X84.067 Y141.396 E6.16037
G1 X83.939 Y141.116 E6.17061
G1 X83.684 Y140.369 E6.19686
G1 X83.505 Y139.6 E6.22312
G1 X83.405 Y138.816 E6.24941
G1 X83.382 Y138.221 E6.26921
G1 X83.382 Y133.995 E6.40977
G1 X83.341 Y133.95 E6.4118
G1 X83.001 Y133.502 E6.4305
G1 X82.761 Y133.16 E6.4444
G1 X82.339 Y132.487 E6.47082
G1 X82.04 Y131.898 E6.49279
G1 X81.875 Y131.536 E6.50602
G1 X81.584 Y130.802 E6.53228
G1 X81.437 Y130.317 E6.54914
G1 X81.334 Y129.932 E6.56239
G1 X81.169 Y129.16 E6.58865
G1 X81.101 Y128.617 E6.60685
G1 X81.065 Y128.218 E6.62018
G1 X81.033 Y127.499 E6.64411
G1 X81.067 Y126.774 E6.66825
G1 X81.106 Y126.356 E6.68222
G1 X81.219 Y125.575 E6.70846
G1 X81.341 Y125.052 E6.72633
G1 X81.445 Y124.666 E6.73962
G1 X81.688 Y123.915 E6.76588
G1 X81.93 Y123.35 E6.78632
G1 X82.109 Y122.973 E6.8002
G1 X82.483 Y122.277 E6.82648
G1 X82.782 Y121.821 E6.84462
G1 X83.017 Y121.488 E6.85817
G1 X83.382 Y121.023 E6.87783
G1 X83.382 Y116.791 E7.01859
G1 X83.422 Y116.002 E7.04487
G1 X83.541 Y115.222 E7.07111
G1 X83.739 Y114.457 E7.09739
G1 X83.992 Y113.773 E7.12165
G1 X83.88 Y112.778 E7.15495
G1 X83.81 Y111.325 E7.20333
G1 X83.802 Y110.852 E7.21907
G1 X83.818 Y109.605 E7.26055
G1 X83.676 Y109.321 E7.27111
G1 X83.36 Y108.597 E7.29738
G1 X83.119 Y107.845 E7.32365
G1 X82.956 Y107.073 E7.34989
G1 X82.871 Y106.288 E7.37615
G1 X82.866 Y105.498 E7.40243
G1 X82.94 Y104.712 E7.42868
G1 X83.197 Y103.569 E7.46765
G1 X83.614 Y102.201 E7.51522
G1 X83.669 Y102.028 E7.52125
G1 X84.201 Y100.418 E7.57765
G1 X84.647 Y99.344 E7.61633
G1 X85.294 Y98.065 E7.664
G1 X85.686 Y97.379 E7.69028
G1 X86.145 Y96.737 E7.71653
G1 X86.666 Y96.144 E7.74279
G1 X87.033 Y95.791 E7.75972
G0 F6000 X87.301 Y96.088
G1 F1200 X88.987 Y94.569 E7.8352
G1 X89.584 Y94.085 E7.86076
G1 X90.229 Y93.665 E7.88636
G1 X90.913 Y93.314 E7.91193
G1 X91.631 Y93.037 E7.93753
G1 X92.1 Y92.899 E7.95379
G1 X93.775 Y92.469 E8.01131
G1 X94.427 Y92.333 E8.03346
G1 X95.657 Y92.133 E8.07491
G1 X96.422 Y92.049 E8.1005
G1 X97.379 Y92.056 E8.13233
G1 X98.816 Y92.16 E8.18025
G1 X99.605 Y92.26 E8.20671
G1 X101.195 Y92.549 E8.26046
G1 X101.368 Y92.592 E8.26639
G1 X102.003 Y92.489 E8.28778
G1 X103.412 Y92.356 E8.33485
G1 X104.274 Y92.215 E8.3639
G1 X105.534 Y91.86 E8.40744
G1 X106.284 Y91.69 E8.43302
G1 X107.095 Y91.596 E8.46018
G1 X108.496 Y91.511 E8.50686
G1 X109.491 Y91.517 E8.53995
G1 X109.987 Y91.554 E8.5565
G1 X110.578 Y91.454 E8.57643
G1 X110.996 Y91.396 E8.59047
G1 X112.788 Y91.198 E8.65043
G1 X113.556 Y91.153 E8.67602
G1 X114.32 Y91.188 E8.70146
G1 X116.195 Y91.371 E8.76412
G1 X117.288 Y91.561 E8.80102
G1 X119.038 Y92.003 E8.86105
G1 X120.016 Y92.324 E8.89529
G1 X121.448 Y92.907 E8.94671
G1 X122.145 Y93.234 E8.97232
G1 X122.631 Y93.518 E8.99104
G1 X123.247 Y93.91 E9.01532
G1 X123.671 Y93.821 E9.02973
G1 X124.805 Y93.666 E9.0678
G1 X125.571 Y93.602 E9.09337
G1 X126.34 Y93.617 E9.11895
G1 X127.104 Y93.712 E9.14456
G1 X127.962 Y93.919 E9.17391
G1 X129.082 Y94.26 E9.21285
G1 X129.806 Y94.522 E9.23846
G1 X130.498 Y94.857 E9.26403
G1 X131.151 Y95.263 E9.28961
G1 X131.93 Y95.886 E9.32278
G1 X133.044 Y96.908 E9.37306
G1 X133.583 Y97.457 E9.39865
G1 X134.062 Y98.059 E9.42424
G1 X134.476 Y98.707 E9.44982
G1 X134.82 Y99.394 E9.47537
G1 X135.056 Y100.006 E9.49719
G1 X135.406 Y101.049 E9.53378
G1 X135.852 Y101.56 E9.55634
G1 X136.294 Y102.189 E9.58191
G1 X136.668 Y102.861 E9.60749
G1 X136.971 Y103.568 E9.63307
G1 X137.21 Y104.349 E9.66023
G1 X137.426 Y105.224 E9.69021
G1 X137.572 Y105.98 E9.71582
G1 X137.638 Y106.746 E9.74139
G1 X137.624 Y107.515 E9.76697
G1 X137.53 Y108.279 E9.79257
G1 X137.278 Y109.289 E9.8272
G1 X137.039 Y110.023 E9.85287
G1 X136.764 Y110.741 E9.87844
G1 X136.415 Y111.427 E9.90404
G1 X135.997 Y112.072 E9.92961
G1 X135.642 Y112.512 E9.94841
G1 X135.551 Y113.589 E9.98436
G1 X135.535 Y113.708 E9.98835
G1 X135.719 Y114.119 E10.00333
G1 X135.959 Y114.85 E10.02892
G1 X136.122 Y115.601 E10.05448
G1 X136.206 Y116.366 E10.08008
G1 X136.218 Y116.791 E10.09422
G1 X136.218 Y121.17 E10.23987
G1 X136.355 Y121.322 E10.24667
G1 X136.651 Y121.712 E10.26296
G1 X136.892 Y122.053 E10.27684
G1 X137.203 Y122.532 E10.29584
G1 X137.562 Y123.205 E10.32121
G1 X137.727 Y123.558 E10.33417
G1 X138.016 Y124.271 E10.35976
G1 X138.171 Y124.776 E10.37733
G1 X138.282 Y125.19 E10.39158
G1 X138.442 Y125.942 E10.41715
G1 X138.508 Y126.482 E10.43525
G1 X138.541 Y126.872 E10.44827
G1 X138.567 Y127.514 E10.46964
G1 X138.541 Y128.135 E10.49031
G1 X138.508 Y128.527 E10.50339
G1 X138.404 Y129.289 E10.52897
G1 X138.282 Y129.819 E10.54706
G1 X138.172 Y130.23 E10.56121
G1 X137.935 Y130.962 E10.5868
G1 X137.717 Y131.473 E10.60528
G1 X137.543 Y131.842 E10.61885
G1 X137.179 Y132.52 E10.64445
G1 X136.895 Y132.955 E10.66172
G1 X136.657 Y133.292 E10.67545
G1 X136.218 Y133.849 E10.69903
G1 X136.218 Y138.221 E10.84445
G1 X136.178 Y138.989 E10.87003
G1 X136.059 Y139.749 E10.89561
G1 X135.861 Y140.492 E10.92119
G1 X135.595 Y141.189 E10.946
G1 X135.633 Y141.422 E10.95385
G1 X135.722 Y142.293 E10.98297
G1 X135.769 Y143.393 E11.01959
G1 X136.099 Y143.871 E11.03891
G1 X136.468 Y144.546 E11.0645
G1 X136.836 Y145.465 E11.09742
G1 X137.077 Y146.207 E11.12337
G1 X137.276 Y146.95 E11.14895
G1 X137.397 Y147.71 E11.17455
G1 X137.439 Y148.478 E11.20013
G1 X137.401 Y149.246 E11.22571
G1 X137.283 Y150.006 E11.25129
G1 X137.087 Y150.75 E11.27688
G1 X136.814 Y151.469 E11.30246
G1 X136.586 Y151.943 E11.31995
G1 X136.105 Y152.855 E11.35424
G1 X135.736 Y153.659 E11.38367
G1 X135.395 Y154.786 E11.42283
G1 X135.134 Y155.51 E11.44843
G1 X134.867 Y156.077 E11.46927
G1 X134.21 Y157.332 E11.51639
G1 X133.818 Y157.994 E11.54198
G1 X133.36 Y158.612 E11.56756
G1 X133.011 Y159.005 E11.58504
G1 X132.041 Y160.023 E11.63181
G1 X131.483 Y160.551 E11.65736
G1 X130.603 Y161.195 E11.69363
G1 X129.264 Y162.031 E11.74613
G1 X128.591 Y162.404 E11.77173
G1 X127.884 Y162.705 E11.79728
G1 X127.148 Y162.931 E11.82289
G1 X126.394 Y163.079 E11.84845
G1 X125.365 Y163.154 E11.88276
G1 X123.859 Y163.158 E11.93285
G1 X122.989 Y163.109 E11.96183
G1 X121.364 Y162.921 E12.01624
G1 X120.313 Y162.722 E12.05182
G1 X118.955 Y162.361 E12.09856
G1 X118.606 Y162.252 E12.11072
G1 X118.177 Y162.3 E12.12507
G1 X117.475 Y162.484 E12.14921
G1 X116.722 Y162.64 E12.17479
G1 X115.955 Y162.717 E12.20043
G1 X114.407 Y162.791 E12.25197
G1 X113.938 Y162.798 E12.26757
G1 X112.53 Y162.776 E12.31441
G1 X112.297 Y162.769 E12.32216
G1 X110.032 Y162.662 E12.39758
G1 X109.266 Y162.586 E12.42318
G1 X108.513 Y162.43 E12.44876
G1 X107.78 Y162.198 E12.47433
G1 X107.58 Y162.11 E12.4816
G1 X107.441 Y162.108 E12.48622
G1 X105.818 Y162.042 E12.54025
G1 X105.591 Y162.024 E12.54782
G1 X104.845 Y162.336 E12.57472
G1 X103.47 Y162.79 E12.62288
G1 X102.728 Y162.993 E12.64846
G1 X102.142 Y163.096 E12.66825
G1 X100.627 Y163.301 E12.7191
G1 X99.654 Y163.368 E12.75154
G1 X98.087 Y163.372 E12.80366
G1 X97.427 Y163.344 E12.82563
G1 X96.012 Y163.221 E12.87287
G1 X95.25 Y163.115 E12.89846
G1 X94.709 Y162.989 E12.91693
G1 X93.527 Y162.667 E12.95768
G1 X92.507 Y162.467 E12.99225
G1 X91.761 Y162.279 E13.01784
G1 X91.038 Y162.016 E13.04343
G1 X90.347 Y161.679 E13.069
G1 X89.685 Y161.265 E13.09497
G1 X88.398 Y160.363 E13.14724
G1 X87.792 Y159.889 E13.17283
G1 X87.238 Y159.355 E13.19842
G1 X86.743 Y158.767 E13.22399
G1 X86.251 Y158.029 E13.25349
G1 X85.325 Y156.44 E13.31466
G1 X84.973 Y155.756 E13.34024
G1 X84.672 Y154.971 E13.3682
G1 X84.217 Y153.551 E13.4178
G1 X84.1 Y153.413 E13.42382
G1 X83.666 Y152.777 E13.44943
G1 X83.301 Y152.101 E13.47498
G1 X82.947 Y151.211 E13.50684
G1 X82.706 Y150.468 E13.53282
G1 X82.507 Y149.725 E13.5584
G1 X82.386 Y148.966 E13.58396
G1 X82.345 Y148.198 E13.60954
G1 X82.384 Y147.429 E13.63515
G1 X82.502 Y146.669 E13.66073
G1 X82.707 Y145.899 E13.68723
G1 X82.948 Y145.157 E13.71318
G1 X83.223 Y144.439 E13.73876
G1 X83.572 Y143.753 E13.76435
G1 X83.989 Y143.107 E13.78993
G1 X84.289 Y142.735 E13.80582
G1 X84.479 Y141.335 E13.85281
G1 X84.281 Y140.893 E13.86892
G1 X84.041 Y140.162 E13.89451
G1 X83.878 Y139.411 E13.92007
G1 X83.794 Y138.646 E13.94567
G1 X83.782 Y138.221 E13.95981
G1 X83.782 Y133.841 E14.10549
G1 X83.639 Y133.682 E14.1126
G1 X83.329 Y133.272 E14.1297
G1 X83.089 Y132.93 E14.1436
G1 X82.687 Y132.291 E14.1687
G1 X82.403 Y131.732 E14.18956
G1 X82.238 Y131.37 E14.20279
G1 X81.956 Y130.655 E14.22835
G1 X81.823 Y130.213 E14.24371
G1 X81.72 Y129.828 E14.25696
G1 X81.561 Y129.076 E14.28253
G1 X81.499 Y128.581 E14.29912
G1 X81.463 Y128.182 E14.31244
G1 X81.433 Y127.499 E14.33518
G1 X81.465 Y126.812 E14.35806
G1 X81.504 Y126.394 E14.37202
G1 X81.615 Y125.632 E14.39763
G1 X81.727 Y125.156 E14.4139
G1 X81.831 Y124.77 E14.42719
G1 X82.069 Y124.039 E14.45276
G1 X82.291 Y123.521 E14.47151
G1 X82.47 Y123.144 E14.48539
G1 X82.836 Y122.467 E14.51098
G1 X83.109 Y122.051 E14.52753
G1 X83.344 Y121.718 E14.54109
G1 X83.782 Y121.161 E14.56466
G1 X83.782 Y116.791 E14.71
G1 X83.822 Y116.023 E14.73558
G1 X83.941 Y115.263 E14.76117
G1 X84.139 Y114.52 E14.78674
G1 X84.407 Y113.818 E14.81173
G1 X84.383 Y113.684 E14.81626
G1 X84.28 Y112.759 E14.84722
G1 X84.21 Y111.306 E14.8956
G1 X84.202 Y110.857 E14.91054
G1 X84.218 Y109.572 E14.95328
